!!!!SEGMENT: pl-stab--27c--001-005_nowakiewicz-kazimierz--missa-in-b-et-resurrexit.krn
!!!cenid: 18xx:3454
!!!COM: Nowakiewicz, Kazimierz
!!!COM-rismID:
!!!CDT: <1800->1824
!!!CNT: Polish
!!!OPR: Missa in B
!!!OTL: Et resurrexit
!!!OMV: 005
!!!PDT:
!!!AGN:
!!!SMS-siglum: PL-STAb
!!!SMS-shelfmark: 27c
!!!SMS-shelfwork: 001-005 M
!!!SMS-variant:
!!!SMS-altvar:
!!!NIFC-rismSourceID: 301050705
!!!NIFC-islandoraID: pl-stab:3750
!!!URL-pdf-islandora: https://repozytorium.nifc.pl/islandora/object/pl-stab%3A3750/datastream/PDF/view
!!!URL-scan: https://polish.musicsources.pl/pl/lokalizacje/galeria/rekopisy/4473 @EN{Scan on Polish Music Herritage in Open Access Website} @PL{Skany w portalu Dziedzictwo Muzyki Polskiej w otwartym dostępie}
!!!ONB-nifc: UWAGA: części Mszy: 1. Kyrie, 2. Gloria, 3. Credo, 4. Et incarnatus, 5. Et resurrexit, 6. Sanctus, 7. Pleni sunt, 8. Benedictus, 9. Agnus Dei, 10. Dona nobis
!!!AIN: 1 alto 1 bass 2 clars 2 cor 1 organ 1 soprn 1 tenor 2 violn
!!!key: B
**kern	**fba	**kern	**dynam	**kern	**dynam	**kern	**text	**dynam	**kern	**text	**kern	**text	**kern	**text	**dynam	**kern	**kern	**kern	**kern	**dynam
*group5	*	*group4	*	*group4	*	*group3	*	*	*group3	*	*group3	*	*group3	*	*	*group2	*group2	*group1	*group1	*
*part11	*	*part10	*part10	*part9	*part9	*part8	*part8	*part8	*part7	*part7	*part6	*part6	*part5	*part5	*part5	*part4	*part3	*part2	*part1	*part1
*staff11	*	*staff10	*	*staff9	*	*staff8	*staff8	*	*staff7	*staff7	*staff6	*staff6	*staff5	*staff5	*	*staff4	*staff3	*staff2	*staff1	*
*I"Organo	*	*I"Violino Secundo	*	*I"Violino Primo	*	*I"Baſso	*	*	*I"Tenore	*	*I"Alto	*	*I"Canto	*	*	*I"Cornu Secundo in B.	*I"Cornu Primo in B.	*I"Clarinetto 2do in B.	*I"Clarinetto Primo in B.	*
*I'[Org]	*	*I'[Vl 2]	*	*I'[Vl 1]	*	*I'[B]	*	*	*I'[T]	*	*I'[A]	*	*I'[S]	*	*	*I'[Cor 2 in B]	*I'[Cor 1 in B]	*I'[Cl 2 in B]	*I'[Cl 1 in B]	*
*Iorgan	*	*Ivioln	*	*Ivioln	*	*Ibass	*	*	*Itenor	*	*Ialto	*	*Isoprn	*	*	*Icor	*Icor	*Iclars	*Iclars	*
*ICklav	*	*ICstr	*	*ICstr	*	*ICvox	*	*	*ICvox	*	*ICvox	*	*ICvox	*	*	*ICbras	*ICbras	*ICww	*ICww	*
*IGcont	*	*IGacmp	*	*IGacmp	*	*IGcoro	*	*	*IGcoro	*	*IGcoro	*	*IGcoro	*	*	*IGacmp	*IGacmp	*IGacmp	*IGacmp	*
*clefF4	*	*clefG2	*	*clefG2	*	*clefF4	*	*	*clefC4	*	*clefC3	*	*clefC1	*	*	*clefG2	*clefG2	*clefG2	*clefG2	*
*	*	*	*	*	*	*	*	*	*	*	*	*	*	*	*	*ITrd1c2	*ITrd1c2	*ITrd1c2	*ITrd1c2	*
*k[b-e-]	*	*k[b-e-]	*	*k[b-e-]	*	*k[b-e-]	*	*	*k[b-e-]	*	*k[b-e-]	*	*k[b-e-]	*	*	*k[b-e-]	*k[b-e-]	*k[b-e-]	*k[b-e-]	*
*B:	*	*B:	*	*B:	*	*B:	*	*	*B:	*	*B:	*	*B:	*	*	*B:	*B:	*B:	*B:	*
*M4/4	*	*M4/4	*	*M4/4	*	*M4/4	*	*	*M4/4	*	*M4/4	*	*M4/4	*	*	*M4/4	*M4/4	*M4/4	*M4/4	*
*met(c)	*	*met(c)	*	*met(c)	*	*met(c)	*	*	*met(c)	*	*met(c)	*	*met(c)	*	*	*met(c)	*met(c)	*met(c)	*met(c)	*
=1	=1	=1	=1	=1	=1	=1	=1	=1	=1	=1	=1	=1	=1	=1	=1	=1	=1	=1	=1	=1
!LO:TX:t=P:problem=brak partii organów od Gloria do prawie końca Credo. Ocalało tylko 7 ostatnich taktów partii.	!	!LO:TX:a:B:t=allo	!LO:DY:a:rj:t=for	!LO:TX:a:B:t=allegro	!	!LO:TX:a:B:t=allo	!	!LO:DY:a:t=for.	!	!	!	!	!LO:TX:a:B:t=allo	!	!	!LO:TX:a:B:t=allo	!LO:TX:a:B:t=allo	!LO:TX:a:B:t=allo	!LO:TX:a:B:t=allo	!LO:DY:a:t=for
1ryy	.	4d/ 4b-/	f	4d/ 4b-/	.	4B-\	Et	f	4d\	Et	4f\	Et	4b-\	Et	.	4d/	4b-\	4b-\	4bb-:\	f
*	*	*	*	*	*	*2\right	*	*	*2\right	*	*2\right	*	*2\right	*	*	*	*2\right	*2\right	*2\right	*
!	!	!	!	!	!	!	!	!	!	!	!	!	!	!	!LO:DY:a:t=for	!	!	!	!	!
.	.	2d/ 2b-/	.	2d/ 2b-/	.	2B-\	Re-	.	2d\	re-	2f\	re-	2b-\	re-	f	2d/	2cc\	2b-\	2b-\	.
.	.	4f/ 4a/	.	4f/ 4cc/	.	4F\	-sur-	.	4A\	-sur-	4f\	-sur-	4cc\	-sur-	.	4g/	4cc\	4a\	4cc\	.
=2	=2	=2	=2	=2	=2	=2	=2	=2	=2	=2	=2	=2	=2	=2	=2	=2	=2	=2	=2	=2
1ryy	.	4d/ 4b-/	.	4dd\	.	4B-\	-re-	.	4B-\	-re-	2f\	-re-	4dd\	-re-	.	4b-\	4dd\	4b-\	4dd\	.
!	!	!	!	!	!LO:DY:a:rj:t=p.	!	!	!	!	!	!	!	!	!	!	!	!	!	!	!
.	.	8cc\L	.	8ee-\L	p	4F\	.	.	4c\	.	.	.	4ee-\	.	.	4cc\	4ee-\	4cc\	4ee-\	.
.	.	16b-\L	.	16dd\L	.	.	.	.	.	.	.	.	.	.	.	.	.	.	.	.
.	.	16cc\JJ	.	16ee-\JJ	.	.	.	.	.	.	.	.	.	.	.	.	.	.	.	.
.	.	4dd\	.	4ff\	.	4BB-/	-xit	.	4d\	-xit	4f\	-xit	4ff\	-xit	.	4dd\	4ff\	4dd\	4ff\	.
.	.	4r	.	4r	.	4r	.	.	4r	.	4r	.	4r	.	.	4r	4r	4r	4r	.
=3	=3	=3	=3	=3	=3	=3	=3	=3	=3	=3	=3	=3	=3	=3	=3	=3	=3	=3	=3	=3
!	!	!	!LO:DY:a:t=p.	!	!	!	!	!	!	!	!	!	!	!	!	!	!	!	!	!
1ryy	.	2f/	p	8r	.	0r	.	.	0r	.	0r	.	0r	.	.	0r	0r	0r	0r	.
.	.	.	.	(>8ff\L	.	.	.	.	.	.	.	.	.	.	.	.	.	.	.	.
.	.	.	.	(>8ee-\)	.	.	.	.	.	.	.	.	.	.	.	.	.	.	.	.
.	.	.	.	8dd\J)	.	.	.	.	.	.	.	.	.	.	.	.	.	.	.	.
.	.	2g/	.	(>8dd\L	.	.	.	.	.	.	.	.	.	.	.	.	.	.	.	.
.	.	.	.	8cc\J)	.	.	.	.	.	.	.	.	.	.	.	.	.	.	.	.
!	!	!	!	!LO:TX:a:t=|:problem	!	!	!	!	!	!	!	!	!	!	!	!	!	!	!	!
.	.	.	.	8cc\L	.	.	.	.	.	.	.	.	.	.	.	.	.	.	.	.
!	!	!	!	!LO:TX:a:t=|:problem	!	!	!	!	!	!	!	!	!	!	!	!	!	!	!	!
.	.	.	.	8cc\J	.	.	.	.	.	.	.	.	.	.	.	.	.	.	.	.
=4	=4	=4	=4	=4	=4	=4-	=4	=4	=4-	=4	=4-	=4	=4-	=4	=4	=4-	=4-	=4-	=4-	=4
1ryy	.	8r	.	8r	.	.	.	.	.	.	.	.	.	.	.	.	.	.	.	.
!	!	!LO:TX:a:t=|:problem	!	!LO:TX:a:t=|:problem	!	!	!	!	!	!	!	!	!	!	!	!	!	!	!	!
.	.	8a\L	.	8cc\L	.	.	.	.	.	.	.	.	.	.	.	.	.	.	.	.
.	.	(>8b-\	.	(>8dd\	.	.	.	.	.	.	.	.	.	.	.	.	.	.	.	.
!	!	!	!	!LO:LB:g=original	!	!	!	!	!	!	!	!	!	!	!	!	!	!	!	!
.	.	8cc\J)	.	8ee-\J)	.	.	.	.	.	.	.	.	.	.	.	.	.	.	.	.
.	.	8cc\L	.	(>8ee-\L	.	.	.	.	.	.	.	.	.	.	.	.	.	.	.	.
.	.	8b-\	.	8dd\J)	.	.	.	.	.	.	.	.	.	.	.	.	.	.	.	.
.	.	8ee-\	.	(>8gg\L	.	.	.	.	.	.	.	.	.	.	.	.	.	.	.	.
.	.	8dd\J	.	8ff\J)	.	.	.	.	.	.	.	.	.	.	.	.	.	.	.	.
=5	=5	=5	=5	=5	=5	=5	=5	=5	=5	=5	=5	=5	=5	=5	=5	=5	=5	=5	=5	=5
!	!	!	!	!	!LO:DY:a:rj:t=for	!	!	!	!	!	!	!	!	!	!	!	!	!	!	!
1ryy	.	4d/ 4b-/	.	4d/ 4dd/ 4bb-/	f	4r	.	.	4r	.	4r	.	4r	.	.	4d/	4b-\	4b-\	4bb-\	.
*	*	*tremolo	*	*	*	*	*	*	*	*	*	*	*	*	*	*	*	*	*	*
!	!	!	!LO:DY:a:t=for	!	!	!	!	!	!	!	!	!	!	!	!	!	!	!	!	!
.	.	16d/LL	f	16b-\LL	.	4BB-/	ter-	.	4d\	Ter-	4f\	Ter-	4b-\	Ter-	.	2d/	2cc\	2b-\	2b-\	.
.	.	16d/	.	16a\	.	.	.	.	.	.	.	.	.	.	.	.	.	.	.	.
.	.	16d/	.	16b-\	.	.	.	.	.	.	.	.	.	.	.	.	.	.	.	.
.	.	16d/	.	16cc\JJ	.	.	.	.	.	.	.	.	.	.	.	.	.	.	.	.
.	.	16d/	.	4b-\	.	4D\	-ti-	.	4d\	-ti-	4f\	-ti-	4b-\	-ti-	.	.	.	.	.	.
.	.	16d/	.	.	.	.	.	.	.	.	.	.	.	.	.	.	.	.	.	.
.	.	16d/	.	.	.	.	.	.	.	.	.	.	.	.	.	.	.	.	.	.
.	.	16d/JJ	.	.	.	.	.	.	.	.	.	.	.	.	.	.	.	.	.	.
.	.	16f/LL	.	4cc\	.	4F\	-a	.	4A\	-a	4f\	-a	4cc\	-a	.	4f/	4cc\	4a\	4cc\	.
.	.	16f/	.	.	.	.	.	.	.	.	.	.	.	.	.	.	.	.	.	.
.	.	16f/	.	.	.	.	.	.	.	.	.	.	.	.	.	.	.	.	.	.
.	.	16f/JJ	.	.	.	.	.	.	.	.	.	.	.	.	.	.	.	.	.	.
!	!	!LO:LB:g=original	!	!	!	!	!	!	!	!	!	!	!	!	!	!	!	!	!	!
=6	=6	=6	=6	=6	=6	=6	=6	=6	=6	=6	=6	=6	=6	=6	=6	=6	=6	=6	=6	=6
1ryy	.	16b-\LL	.	4dd\	.	(>4B-\	di-	.	4B-\	Di-	2f\	di-	4dd\	Di-	.	4b-\	4dd\	4b-\	4dd\	.
.	.	16b-\	.	.	.	.	.	.	.	.	.	.	.	.	.	.	.	.	.	.
.	.	16b-\	.	.	.	.	.	.	.	.	.	.	.	.	.	.	.	.	.	.
.	.	16b-\JJ	.	.	.	.	.	.	.	.	.	.	.	.	.	.	.	.	.	.
.	.	.	.	8qqff/	.	.	.	.	.	.	.	.	.	.	.	.	.	.	.	.
.	.	16cc\LL	.	8ee-\L	.	4F\)	.	.	4c\	.	.	.	4ee-\	.	.	4cc\	4ee-\	4cc\	4ee-\	.
.	.	16cc\	.	.	.	.	.	.	.	.	.	.	.	.	.	.	.	.	.	.
.	.	16cc\	.	16dd\L	.	.	.	.	.	.	.	.	.	.	.	.	.	.	.	.
.	.	16cc\JJ	.	16ee-\JJ	.	.	.	.	.	.	.	.	.	.	.	.	.	.	.	.
*	*	*Xtremolo	*	*	*	*	*	*	*	*	*	*	*	*	*	*	*	*	*	*
.	.	4dd\	.	4ff\	.	4BB-/	-e	.	4d\	-e	4f\	-e	4ff\	-e	.	4dd\	4ff\	4dd\	4ff\	.
.	.	4r	.	16bb-\LL	.	4r	.	.	4r	.	4r	.	4r	.	.	4r	4r	4r	4r	.
.	.	.	.	16aa\	.	.	.	.	.	.	.	.	.	.	.	.	.	.	.	.
.	.	.	.	16gg\	.	.	.	.	.	.	.	.	.	.	.	.	.	.	.	.
.	.	.	.	16ff\JJ	.	.	.	.	.	.	.	.	.	.	.	.	.	.	.	.
!	!	!	!	!	!	!	!	!	!	!	!	!	!	!	!	!	!LO:LB:g=original	!	!	!
=7	=7	=7	=7	=7	=7	=7	=7	=7	=7	=7	=7	=7	=7	=7	=7	=7	=7	=7	=7	=7
1ryy	.	16f\LL	.	16ff\LL	.	4r	.	.	4r	.	4r	.	4r	.	.	4f/	4cc\	1cc	1ee-	.
.	.	16cc\	.	16ee-\	.	.	.	.	.	.	.	.	.	.	.	.	.	.	.	.
.	.	16f\	.	16dd\	.	.	.	.	.	.	.	.	.	.	.	.	.	.	.	.
.	.	16cc\JJ	.	16ee-\JJ	.	.	.	.	.	.	.	.	.	.	.	.	.	.	.	.
*	*	*rep	*	*	*	*	*	*	*	*	*	*	*	*	*	*	*	*	*	*
.	.	16f\LL	.	16ff\LL	.	4A\	Se-	.	4c\	Se-	4f\	Se-	4ee-\	Se-	.	8f/L	8cc\L	.	.	.
.	.	16cc\	.	16ee-\	.	.	.	.	.	.	.	.	.	.	.	.	.	.	.	.
.	.	16f\	.	16dd\	.	.	.	.	.	.	.	.	.	.	.	8f/J	8cc\J	.	.	.
.	.	16cc\JJ	.	16ee-\JJ	.	.	.	.	.	.	.	.	.	.	.	.	.	.	.	.
*	*	*Xrep	*	*	*	*	*	*	*	*	*	*	*	*	*	*	*	*	*	*
*	*	*rep	*	*	*	*	*	*	*	*	*	*	*	*	*	*	*	*	*	*
.	.	16f\LL	.	16f\LL	.	4A\	-cun-	.	4c\	-cun-	4f\	-cun-	4ee-\	-cun-	.	4f/	4cc\	.	.	.
.	.	16cc\	.	16ee-\	.	.	.	.	.	.	.	.	.	.	.	.	.	.	.	.
.	.	16f\	.	16f\	.	.	.	.	.	.	.	.	.	.	.	.	.	.	.	.
.	.	16cc\JJ	.	16ee-\JJ	.	.	.	.	.	.	.	.	.	.	.	.	.	.	.	.
*	*	*Xrep	*	*	*	*	*	*	*	*	*	*	*	*	*	*	*	*	*	*
*	*	*rep	*	*rep	*	*	*	*	*	*	*	*	*	*	*	*	*	*	*	*
.	.	16f\LL	.	16f\LL	.	8A\	-du(m)	.	8c\	-dum	8f\	-du(m)	8ee-\	-du(m)	.	4r	4r	.	.	.
.	.	16cc\	.	16ee-\	.	.	.	.	.	.	.	.	.	.	.	.	.	.	.	.
.	.	16f\	.	16f\	.	8A\	Scri-	.	8c\	.	8f\	scrip-	8ee-\	scrip-	.	.	.	.	.	.
.	.	16cc\JJ	.	16ee-\JJ	.	.	.	.	.	.	.	.	.	.	.	.	.	.	.	.
*	*	*Xrep	*	*Xrep	*	*	*	*	*	*	*	*	*	*	*	*	*	*	*	*
!	!	!	!	!	!	!LO:LB:g=original	!	!	!	!	!	!	!	!	!	!	!	!	!	!
=8	=8	=8	=8	=8	=8	=8	=8	=8	=8	=8	=8	=8	=8	=8	=8	=8	=8	=8	=8	=8
*	*	*2\right	*	*	*	*	*	*	*	*	*	*	*	*	*	*	*	*	*	*
*	*	*tremolo	*	*	*	*	*	*	*	*	*	*	*	*	*	*	*	*	*	*
1ryy	.	16f\LL	.	16ee-\LL	.	4B-\	-ptu-	.	4B-\	Scrip-	4f\	-tu-	4dd\	-tu-	.	4b-\	4dd\	1b-	1dd	.
.	.	16dd\	.	16dd\	.	.	.	.	.	.	.	.	.	.	.	.	.	.	.	.
.	.	16f\	.	16ee-\	.	.	.	.	.	.	.	.	.	.	.	.	.	.	.	.
.	.	16dd\	.	16cc\JJ	.	.	.	.	.	.	.	.	.	.	.	.	.	.	.	.
!	!	!	!	!	!	!	!	!	!	!	!LO:LB:g=original	!	!	!	!	!	!	!	!	!
.	.	16f\	.	16ee-\LL	.	4B-\	-ras	.	4B-\	-tu-	4f\	-ras	4dd\	-ras	.	8b-\L	8dd\L	.	.	.
.	.	16dd\	.	16dd\	.	.	.	.	.	.	.	.	.	.	.	.	.	.	.	.
.	.	16f\	.	16cc\	.	.	.	.	.	.	.	.	.	.	.	8b-\J	8dd\J	.	.	.
.	.	16dd\JJ	.	16dd\JJ	.	.	.	.	.	.	.	.	.	.	.	.	.	.	.	.
.	.	16f\LL	.	16f/LL	.	4B-\	et	.	4B-\	-ras	4f\	et	4dd\	et	.	4b-\	4dd\	.	.	.
.	.	16dd\	.	16dd/	.	.	.	.	.	.	.	.	.	.	.	.	.	.	.	.
.	.	16f\	.	16f/	.	.	.	.	.	.	.	.	.	.	.	.	.	.	.	.
.	.	16dd\	.	16dd/JJ	.	.	.	.	.	.	.	.	.	.	.	.	.	.	.	.
*	*	*	*	*rep	*	*	*	*	*	*	*	*	*	*	*	*	*	*	*	*
.	.	16f\	.	16f/LL	.	4B-\	as-	.	4B-\	et	4f\	as-	4dd\	aſ-	.	4r	4r	.	.	.
.	.	16dd\	.	16dd/	.	.	.	.	.	.	.	.	.	.	.	.	.	.	.	.
.	.	16f\	.	16f/	.	.	.	.	.	.	.	.	.	.	.	.	.	.	.	.
.	.	16dd\JJ	.	16dd/JJ	.	.	.	.	.	.	.	.	.	.	.	.	.	.	.	.
*	*	*	*	*Xrep	*	*	*	*	*	*	*	*	*	*	*	*	*	*	*	*
!	!	!	!	!LO:LB:g=original	!	!	!	!	!LO:LB:g=original	!	!	!	!LO:LB:g=original	!	!	!	!	!	!	!
=9	=9	=9	=9	=9	=9	=9	=9	=9	=9	=9	=9	=9	=9	=9	=9	=9	=9	=9	=9	=9
1ryy	.	16f\LL	.	16ff\LL	.	4A\	-cen-	.	4c\	a-	4f\	-cen-	4ee-\	-cen-	.	4f/	4cc\	1cc	1ee-	.
.	.	16cc\	.	16ee-\	.	.	.	.	.	.	.	.	.	.	.	.	.	.	.	.
.	.	16f\	.	16dd\	.	.	.	.	.	.	.	.	.	.	.	.	.	.	.	.
.	.	16cc\	.	16ee-\JJ	.	.	.	.	.	.	.	.	.	.	.	.	.	.	.	.
.	.	16f\	.	16ff\LL	.	8A\	-dit	.	8c\	-scen-	8f\	-dit	8ee-\	-dit	.	8f/L	8cc\L	.	.	.
.	.	16cc\	.	16ee-\	.	.	.	.	.	.	.	.	.	.	.	.	.	.	.	.
.	.	16f\	.	16dd\	.	8A\	in	.	8c\	-dit	8f\	in	8ee-\	in	.	8f/J	8cc\J	.	.	.
.	.	16cc\JJ	.	16ee-\JJ	.	.	.	.	.	.	.	.	.	.	.	.	.	.	.	.
*	*	*rep	*	*	*	*	*	*	*	*	*	*	*	*	*	*	*	*	*	*
.	.	16f\LL	.	16f\LL	.	4A\	ce-	.	4c\	in	4f\	ce-	4ee-\	ce-	.	4f/	4cc\	.	.	.
.	.	16cc\	.	16ee-\	.	.	.	.	.	.	.	.	.	.	.	.	.	.	.	.
.	.	16f\	.	16f\	.	.	.	.	.	.	.	.	.	.	.	.	.	.	.	.
.	.	16cc\	.	16ee-\JJ	.	.	.	.	.	.	.	.	.	.	.	.	.	.	.	.
*	*	*	*	*rep	*	*	*	*	*	*	*	*	*	*	*	*	*	*	*	*
.	.	16f\	.	16f\LL	.	4A\	-lum	.	4c\	Ce-	4f\	-lum	4ee-\	-lum	.	4r	4r	.	.	.
.	.	16cc\	.	16ee-\	.	.	.	.	.	.	.	.	.	.	.	.	.	.	.	.
.	.	16f\	.	16f\	.	.	.	.	.	.	.	.	.	.	.	.	.	.	.	.
.	.	16cc\JJ	.	16ee-\JJ	.	.	.	.	.	.	.	.	.	.	.	.	.	.	.	.
*	*	*Xrep	*	*Xrep	*	*	*	*	*	*	*	*	*	*	*	*	*	*	*	*
!	!	!	!	!	!	!	!	!	!	!	!	!	!	!	!	!	!	!LO:LB:g=original	!LO:LB:g=original	!
=10	=10	=10	=10	=10	=10	=10	=10	=10	=10	=10	=10	=10	=10	=10	=10	=10	=10	=10	=10	=10
*	*	*	*	*	*	*	*	*	*	*	*	*ij	*	*	*	*	*	*	*	*
!	!	!	!	!	!	!	!	!	!	!	!LO:TX:t=P:problem=za mało nut w stosunku do sylab	!	!	!	!	!	!	!	!	!
1ryy	.	16f\LL	.	16ee-\LL	.	4B-\	Se-	.	4B-\	.	4f\	cen?-	4dd\	Se-	.	4b-\	4dd\	2b-\	1dd	.
.	.	16dd\	.	16dd\	.	.	.	.	.	.	.	.	.	.	.	.	.	.	.	.
.	.	16f\	.	16ee-\	.	.	.	.	.	.	.	.	.	.	.	.	.	.	.	.
.	.	16dd\	.	16cc\JJ	.	.	.	.	.	.	.	.	.	.	.	.	.	.	.	.
.	.	16f\	.	16ee-\LL	.	8B-\	-det	.	8B-\	-lum	8f\	-dit	8dd\	-det	.	8b-\L	8dd\L	.	.	.
.	.	16dd\	.	16dd\	.	.	.	.	.	.	.	.	.	.	.	.	.	.	.	.
.	.	16f\	.	16cc\	.	8B-\	ad	.	8B-\	Se-	8f\	in	8dd\	ad	.	8b-\J	8dd\J	.	.	.
.	.	16dd\JJ	.	16dd\JJ	.	.	.	.	.	.	.	.	.	.	.	.	.	.	.	.
*	*	*tremolo	*	*tremolo	*	*	*	*	*	*	*	*	*	*	*	*	*	*	*	*
*	*	*rep	*	*	*	*	*	*	*	*	*	*	*	*	*	*	*	*	*	*
.	.	16f\LL	.	16f/LL	.	4B-\	dex-	.	4B-\	-det	4f\	ce-	4dd\	dex-	.	4b-\	4dd\	2b-\	.	.
.	.	16dd\	.	16dd/	.	.	.	.	.	.	.	.	.	.	.	.	.	.	.	.
.	.	16f\	.	16f/	.	.	.	.	.	.	.	.	.	.	.	.	.	.	.	.
.	.	16dd\	.	16dd/	.	.	.	.	.	.	.	.	.	.	.	.	.	.	.	.
.	.	16f\	.	16f/	.	8B-\	-te-	.	8B-\	ad	4f\	-lum	8dd\	-te-	.	4r	4r	.	.	.
*	*	*	*	*	*	*	*	*	*	*	*	*Xij	*	*	*	*	*	*	*	*
.	.	16dd\	.	16dd/	.	.	.	.	.	.	.	.	.	.	.	.	.	.	.	.
.	.	16f\	.	16f/	.	8B-\	-ram	.	8B-\	dex-	.	.	8dd\	-ram	.	.	.	.	.	.
.	.	16dd\JJ	.	16dd/JJ	.	.	.	.	.	.	.	.	.	.	.	.	.	.	.	.
*	*	*Xrep	*	*	*	*	*	*	*	*	*	*	*	*	*	*	*	*	*	*
*	*	*	*	*Xtremolo	*	*	*	*	*	*	*	*	*	*	*	*	*	*	*	*
=11	=11	=11	=11	=11	=11	=11	=11	=11	=11	=11	=11	=11	=11	=11	=11	=11	=11	=11	=11	=11
1ryy	.	16g\LL	.	16dd\LL	.	4E-\	Pa-	.	4B-\	-te-	4g\	se-	4cc\	Pa-	.	4cc\	4cc\	2cc\	2cc\	.
.	.	16cc\	.	16cc\	.	.	.	.	.	.	.	.	.	.	.	.	.	.	.	.
.	.	16g\	.	16bn\	.	.	.	.	.	.	.	.	.	.	.	.	.	.	.	.
.	.	16cc\	.	16cc\JJ	.	.	.	.	.	.	.	.	.	.	.	.	.	.	.	.
.	.	16g\	.	16dd\LL	.	8E-\	-tris	.	8B-\	-ram	8g\	-det	8cc\	-tris	.	8cc\L	8cc\L	.	.	.
.	.	16cc\	.	16cc\	.	.	.	.	.	.	.	.	.	.	.	.	.	.	.	.
.	.	16g\	.	16bn\	.	8E-\	et	.	8B-\	Pa-	8g\	ad	8cc\	et	.	8cc\J	8cc\J	.	.	.
.	.	16cc\JJ	.	16cc\JJ	.	.	.	.	.	.	.	.	.	.	.	.	.	.	.	.
*	*	*rep	*	*	*	*	*	*	*	*	*	*	*	*	*	*	*	*	*	*
.	.	16g\LL	.	16cc\LL	.	4En\	i-	.	4B-\	.	4g\	dex-	4cc\	i-	.	4cc\	4cc\	2gg\	2bb-\	.
.	.	16cc\	.	16bb-\	.	.	.	.	.	.	.	.	.	.	.	.	.	.	.	.
.	.	16g\	.	16cc\	.	.	.	.	.	.	.	.	.	.	.	.	.	.	.	.
.	.	16cc\	.	16bb-\JJ	.	.	.	.	.	.	.	.	.	.	.	.	.	.	.	.
*	*	*	*	*rep	*	*	*	*	*	*	*	*	*	*	*	*	*	*	*	*
.	.	16g\	.	16cc\LL	.	4E\	-te-	.	4B-\	-tris	4g\	-te-	4cc\	-te-	.	4r	4r	.	.	.
.	.	16cc\	.	16bb-\	.	.	.	.	.	.	.	.	.	.	.	.	.	.	.	.
.	.	16g\	.	16cc\	.	.	.	.	.	.	.	.	.	.	.	.	.	.	.	.
.	.	16cc\JJ	.	16bb-\JJ	.	.	.	.	.	.	.	.	.	.	.	.	.	.	.	.
*	*	*Xrep	*	*Xrep	*	*	*	*	*	*	*	*	*	*	*	*	*	*	*	*
=12	=12	=12	=12	=12	=12	=12	=12	=12	=12	=12	=12	=12	=12	=12	=12	=12	=12	=12	=12	=12
1ryy	.	16a\LL	.	16bb-\LL	.	4F\	-rum	.	4A\	et	4a\	-ra(m)	4cc\	-rum	.	4f/	4cc\	1ff	1aa	.
.	.	16cc\	.	16aa\	.	.	.	.	.	.	.	.	.	.	.	.	.	.	.	.
.	.	16a\	.	16gg\	.	.	.	.	.	.	.	.	.	.	.	.	.	.	.	.
.	.	16cc\	.	16aa\JJ	.	.	.	.	.	.	.	.	.	.	.	.	.	.	.	.
.	.	16a\	.	16bb-\LL	.	8F\	ven-	.	4f\	i-	4a\	De-	4cc\	ven-	.	8f/L	8cc\L	.	.	.
.	.	16cc\	.	16aa\	.	.	.	.	.	.	.	.	.	.	.	.	.	.	.	.
.	.	16a\	.	16gg\	.	8F\	-tu-	.	.	.	.	.	.	.	.	8f/J	8cc\J	.	.	.
.	.	16cc\JJ	.	16aa\JJ	.	.	.	.	.	.	.	.	.	.	.	.	.	.	.	.
!	!	!LO:LB:g=original	!	!	!	!LO:LB:g=original	!	!	!	!	!	!	!	!	!	!	!	!	!	!
.	.	16a\LL	.	16cc\LL	.	4F\	-rus	.	4f\	-te-	4a\	-i	4cc\	-tu-	.	4f/	4cc\	.	.	.
.	.	16cc\	.	16aa\	.	.	.	.	.	.	.	.	.	.	.	.	.	.	.	.
.	.	16a\	.	16cc\	.	.	.	.	.	.	.	.	.	.	.	.	.	.	.	.
.	.	16cc\	.	16aa\JJ	.	.	.	.	.	.	.	.	.	.	.	.	.	.	.	.
*	*	*	*	*	*	*	*ij	*	*	*	*	*	*	*	*	*	*	*	*	*
!	!	!	!	!LO:LB:g=original	!	!	!	!	!	!	!	!	!	!	!	!	!	!	!	!
.	.	16a\	.	16cc\LL	.	4F\	i-	.	4f\	-rum	4a\	Pa-	4cc\	-rus	.	4r	4r	.	.	.
.	.	16cc\	.	16aa\	.	.	.	.	.	.	.	.	.	.	.	.	.	.	.	.
.	.	16a\	.	16cc\	.	.	.	.	.	.	.	.	.	.	.	.	.	.	.	.
.	.	16cc\JJ	.	16aa\JJ	.	.	.	.	.	.	.	.	.	.	.	.	.	.	.	.
!	!	!	!	!	!	!	!	!	!	!	!	!	!	!	!	!LO:LB:g=original	!	!	!	!
=13	=13	=13	=13	=13	=13	=13	=13	=13	=13	=13	=13	=13	=13	=13	=13	=13	=13	=13	=13	=13
1ryy	.	16g\LL	.	16ccc\LL	.	4En\	-te-	.	4g\	ven-	4b-\	-tris	4cc\	est	.	4cc\	4cc\	1gg	1bb-	.
.	.	16cc\	.	16bb-\	.	.	.	.	.	.	.	.	.	.	.	.	.	.	.	.
.	.	16g\	.	16aa\	.	.	.	.	.	.	.	.	.	.	.	.	.	.	.	.
.	.	16cc\	.	16bb-\JJ	.	.	.	.	.	.	.	.	.	.	.	.	.	.	.	.
.	.	16g\	.	16ccc\LL	.	4E\	-rum	.	4g\	-tu-	4b-\	et	4cc\	Cum	.	8cc\L	8cc\L	.	.	.
.	.	16cc\	.	16bb-\	.	.	.	.	.	.	.	.	.	.	.	.	.	.	.	.
.	.	16g\	.	16aa\	.	.	.	.	.	.	.	.	.	.	.	8cc\J	8cc\J	.	.	.
.	.	16cc\JJ	.	16bb-\JJ	.	.	.	.	.	.	.	.	.	.	.	.	.	.	.	.
!	!	!	!	!	!	!	!	!	!	!	!LO:LB:g=original	!	!	!	!	!	!	!	!	!
*	*	*rep	*	*	*	*	*	*	*	*	*	*	*	*	*	*	*	*	*	*
.	.	16g\LL	.	16cc\LL	.	4E\	ven-	.	4g\	-rus	4b-\	i-	4cc\	glo-	.	4cc\	4cc\	.	.	.
.	.	16cc\	.	16bb-\	.	.	.	.	.	.	.	.	.	.	.	.	.	.	.	.
.	.	16g\	.	16cc\	.	.	.	.	.	.	.	.	.	.	.	.	.	.	.	.
.	.	16cc\	.	16bb-\JJ	.	.	.	.	.	.	.	.	.	.	.	.	.	.	.	.
*	*	*	*	*rep	*	*	*	*	*	*	*	*	*	*	*	*	*	*	*	*
.	.	16g\	.	16cc\LL	.	4E\	-tu-	.	4g\	est	4b-\	-te-	4cc\	-ri-	.	4r	4cc\	.	.	.
.	.	16cc\	.	16bb-\	.	.	.	.	.	.	.	.	.	.	.	.	.	.	.	.
.	.	16g\	.	16cc\	.	.	.	.	.	.	.	.	.	.	.	.	.	.	.	.
.	.	16cc\JJ	.	16bb-\JJ	.	.	.	.	.	.	.	.	.	.	.	.	.	.	.	.
*	*	*Xrep	*	*Xrep	*	*	*	*	*	*	*	*	*	*	*	*	*	*	*	*
=14	=14	=14	=14	=14	=14	=14	=14	=14	=14	=14	=14	=14	=14	=14	=14	=14	=14	=14	=14	=14
1ryy	.	16cc\LL	.	8aa\L	.	4F\	-rus	.	4f\	cu(m)	4a\	-rum	4cc\	-a	.	4f/	4cc\	4ff\	4aa\	.
*	*	*	*	*	*	*	*Xij	*	*	*	*	*	*	*	*	*	*	*	*	*
.	.	16cc\	.	.	.	.	.	.	.	.	.	.	.	.	.	.	.	.	.	.
.	.	16cc\	.	8gg\	.	.	.	.	.	.	.	.	.	.	.	.	.	.	.	.
.	.	16cc\	.	.	.	.	.	.	.	.	.	.	.	.	.	.	.	.	.	.
.	.	16cc\	.	8ff\	.	4r	.	.	4r	.	4r	.	4r	.	.	4r	4r	4r	4r	.
.	.	16cc\	.	.	.	.	.	.	.	.	.	.	.	.	.	.	.	.	.	.
.	.	16cc\	.	8een\J	.	.	.	.	.	.	.	.	.	.	.	.	.	.	.	.
.	.	16cc\JJ	.	.	.	.	.	.	.	.	.	.	.	.	.	.	.	.	.	.
.	.	16f/LL	.	8ff\L	.	8A\	Ju-	.	8c\	glo-	8f\	Ju-	8ff\	Ju-	.	2r	2r	8r	8r	.
.	.	16f/	.	.	.	.	.	.	.	.	.	.	.	.	.	.	.	.	.	.
.	.	16f/	.	8ee-X\	.	8c\	-di-	.	8A\	-ri-	8f\	-di-	8ee-X\	-di-	.	.	.	8f/L	8eeX\L	.
.	.	16f/	.	.	.	.	.	.	.	.	.	.	.	.	.	.	.	.	.	.
!	!	!	!	!	!	!	!	!	!LO:LB:g=original	!	!	!	!LO:LB:g=original	!	!	!	!	!	!	!
.	.	16f/	.	8dd\	.	8B-\L	-ca-	.	8B-\L	-a	4f\	-ca-	8dd\L	-ca-	.	.	.	8f/	8dd\	.
.	.	16f/	.	.	.	.	.	.	.	.	.	.	.	.	.	.	.	.	.	.
.	.	16f/	.	8cc\J	.	8A\J	.	.	8c\J	.	.	.	8cc\J	.	.	.	.	8f/J	8cc\J	.
.	.	16f/JJ	.	.	.	.	.	.	.	.	.	.	.	.	.	.	.	.	.	.
=15	=15	=15	=15	=15	=15	=15	=15	=15	=15	=15	=15	=15	=15	=15	=15	=15	=15	=15	=15	=15
1ryy	.	16f/LL	.	8dd\L	.	8B-\	-re	.	8d\	re	8f\	-re	8dd\	-re	.	0r	0r	8f/	8dd\	.
.	.	16f/	.	.	.	.	.	.	.	.	.	.	.	.	.	.	.	.	.	.
.	.	16f/	.	16ddd\L	.	8A\	vi-	.	8d\	vi-	8d\	vi-	8cc\	vi-	.	.	.	8r	8r	.
.	.	16f/JJ	.	16ccc\JJ	.	.	.	.	.	.	.	.	.	.	.	.	.	.	.	.
.	.	16d/LL 16dd/	.	8bb-\L	.	8G\	-vos	.	8d\	-vos	8d\	-vos	8b-\	-vos	.	.	.	4r	4r	.
.	.	16d/ 16dd/	.	.	.	.	.	.	.	.	.	.	.	.	.	.	.	.	.	.
.	.	16d/ 16dd/	.	8aa\J	.	8F#X\	et	.	8d\	et	8d\	et	8a\	et	.	.	.	.	.	.
.	.	16d/JJ 16dd/	.	.	.	.	.	.	.	.	.	.	.	.	.	.	.	.	.	.
.	.	16d/LL 16dd/	.	8bb-\L	.	8G\L	mor-	.	4d\	mor-	8d\L	mor-	4b-\	mor-	.	.	.	2r	2r	.
.	.	16d/ 16dd/	.	.	.	.	.	.	.	.	.	.	.	.	.	.	.	.	.	.
.	.	16d/ 16dd/	.	8aa\	.	8c\J	.	.	.	.	8a\J	.	.	.	.	.	.	.	.	.
.	.	16d/ 16dd/	.	.	.	.	.	.	.	.	.	.	.	.	.	.	.	.	.	.
.	.	16d/ 16dd/	.	8gg\	.	8B-\L	-tu-	.	4d\	-tu-	8g\L	-tu-	4dd\	-tu-	.	.	.	.	.	.
.	.	16d/ 16dd/	.	.	.	.	.	.	.	.	.	.	.	.	.	.	.	.	.	.
.	.	16d/ 16dd/	.	8ff#X\J	.	8A\J	.	.	.	.	8f#X\J	.	.	.	.	.	.	.	.	.
.	.	16d/JJ 16dd/	.	.	.	.	.	.	.	.	.	.	.	.	.	.	.	.	.	.
=16	=16	=16	=16	=16	=16	=16	=16	=16	=16	=16	=16	=16	=16	=16	=16	=16-	=16-	=16	=16	=16
1ryy	.	16G/LL 16g/	.	8gg\L	.	4B-\	-os	.	4d\	-os	4g\	-os	4dd\	-os	.	.	.	0r	0r	.
.	.	16G/ 16g/	.	.	.	.	.	.	.	.	.	.	.	.	.	.	.	.	.	.
.	.	16G/ 16g/	.	8ffn\J	.	.	.	.	.	.	.	.	.	.	.	.	.	.	.	.
.	.	16G/ 16g/	.	.	.	.	.	.	.	.	.	.	.	.	.	.	.	.	.	.
.	.	16G/ 16g/	.	8een\L	.	4r	.	.	4r	.	4r	.	4r	.	.	.	.	.	.	.
.	.	16G/ 16g/	.	.	.	.	.	.	.	.	.	.	.	.	.	.	.	.	.	.
.	.	16G/ 16g/	.	8ff\J	.	.	.	.	.	.	.	.	.	.	.	.	.	.	.	.
.	.	16G/JJ 16g/	.	.	.	.	.	.	.	.	.	.	.	.	.	.	.	.	.	.
.	.	16G/LL 16g/	.	8ee\L	.	8C/	Cu-	.	8c\L	cu-	8g\	Cu-	8een\L	Cu-	.	.	.	.	.	.
.	.	16G/ 16g/	.	.	.	.	.	.	.	.	.	.	.	.	.	.	.	.	.	.
.	.	16G/ 16g/	.	8dd\J	.	8F\	-ius	.	8d\J	.	8g\	-ius	8dd\J	.	.	.	.	.	.	.
.	.	16G/ 16g/	.	.	.	.	.	.	.	.	.	.	.	.	.	.	.	.	.	.
.	.	16G/ 16g/	.	8cc\L	.	8En\L	Re-	.	8en\L	-ius	4g\	Re-	8cc\L	-ius	.	.	.	.	.	.
.	.	16G/ 16g/	.	.	.	.	.	.	.	.	.	.	.	.	.	.	.	.	.	.
.	.	16G/ 16g/	.	8bn\J	.	8D\J	.	.	8f\J	.	.	.	8bn\J	.	.	.	.	.	.	.
.	.	16G/JJ 16g/	.	.	.	.	.	.	.	.	.	.	.	.	.	.	.	.	.	.
!	!	!	!	!LO:LB:g=original	!	!	!	!	!	!	!	!	!	!	!	!	!	!	!	!
=17	=17	=17	=17	=17	=17	=17	=17	=17	=17	=17	=17	=17	=17	=17	=17	=17-	=17-	=17-	=17-	=17
1ryy	.	16cc\LL	.	8cc\L	.	4C/	-gni	.	4en\	Re-	8g\	-gni	4cc\	Re-	.	1r	1r	.	.	.
.	.	16cc\	.	.	.	.	.	.	.	.	.	.	.	.	.	.	.	.	.	.
.	.	16cc\	.	16gg\L	.	.	.	.	.	.	8g\	no(n)	.	.	.	.	.	.	.	.
.	.	16cc\	.	16ff\JJ	.	.	.	.	.	.	.	.	.	.	.	.	.	.	.	.
.	.	16cc\	.	8ee-\L	.	4C/	no(n)	.	8e\	-gni	8g\	e-	8cc\	-gni	.	.	.	.	.	.
.	.	16cc\	.	.	.	.	.	.	.	.	.	.	.	.	.	.	.	.	.	.
.	.	16cc\	.	8dd\J	.	.	.	.	8e\	non	8g\	-rit	8cc\	non	.	.	.	.	.	.
.	.	16cc\JJ	.	.	.	.	.	.	.	.	.	.	.	.	.	.	.	.	.	.
!	!	!	!	!	!	!LO:LB:g=original	!	!	!	!	!LO:LB:g=original	!	!	!	!	!	!	!	!	!
.	.	16cc\LL	.	8cc\L	.	4En\	e-	.	4e\	e-	4g\	fi-	4cc\	e-	.	.	.	.	.	.
.	.	16cc\	.	.	.	.	.	.	.	.	.	.	.	.	.	.	.	.	.	.
.	.	16cc\	.	8b-X\J	.	.	.	.	.	.	.	.	.	.	.	.	.	.	.	.
.	.	16cc\	.	.	.	.	.	.	.	.	.	.	.	.	.	.	.	.	.	.
.	.	16cc\	.	8a/L	.	4E\	-rit	.	4e\	-rit	4g\	-nis	4cc\	-rit	.	.	.	.	.	.
.	.	16cc\	.	.	.	.	.	.	.	.	.	.	.	.	.	.	.	.	.	.
.	.	16cc\	.	8g/J	.	.	.	.	.	.	.	.	.	.	.	.	.	.	.	.
.	.	16cc\JJ	.	.	.	.	.	.	.	.	.	.	.	.	.	.	.	.	.	.
=18	=18	=18	=18	=18	=18	=18	=18	=18	=18	=18	=18	=18	=18	=18	=18	=18	=18	=18	=18	=18
*	*	*	*	*	*	*	*	*	*	*	*	*ij	*	*	*	*	*	*	*	*
1ryy	.	16a\LL	.	16a/LL	.	4F\	fi-	.	4f\	fi-	4a\	fi-	4cc\	fi-	.	4f/	4cc\	1cc	2ff\	.
.	.	16cc\	.	16f/	.	.	.	.	.	.	.	.	.	.	.	.	.	.	.	.
.	.	16a\	.	16g/	.	.	.	.	.	.	.	.	.	.	.	.	.	.	.	.
.	.	16cc\	.	16a/JJ	.	.	.	.	.	.	.	.	.	.	.	.	.	.	.	.
.	.	16a\	.	16b-\LL	.	4F\	-nis	.	4f\	-nis	4a\	-nis	4cc\	-nis	.	8f/L	8cc\L	.	.	.
*	*	*	*	*	*	*	*	*	*	*	*	*Xij	*	*	*	*	*	*	*	*
.	.	16cc\	.	16cc\	.	.	.	.	.	.	.	.	.	.	.	.	.	.	.	.
.	.	16a\	.	16dd\	.	.	.	.	.	.	.	.	.	.	.	8f/J	8cc\J	.	.	.
.	.	16cc\JJ	.	16ee-\JJ	.	.	.	.	.	.	.	.	.	.	.	.	.	.	.	.
*	*	*rep	*	*	*	*	*	*	*	*	*	*	*	*	*	*	*	*	*	*
.	.	16a\LL	.	8ff\L	.	4F\	et	.	4f\	et	4a\	et	4cc\	et	.	4f/	4cc\	.	2aa\	.
.	.	16cc\	.	.	.	.	.	.	.	.	.	.	.	.	.	.	.	.	.	.
.	.	16a\	.	8cc\	.	.	.	.	.	.	.	.	.	.	.	.	.	.	.	.
.	.	16cc\	.	.	.	.	.	.	.	.	.	.	.	.	.	.	.	.	.	.
.	.	16a\	.	8aa\	.	4F\	in	.	4c\	in	4a\	in	4cc\	in	.	4r	4r	.	.	.
.	.	16cc\	.	.	.	.	.	.	.	.	.	.	.	.	.	.	.	.	.	.
.	.	16a\	.	8cc\J	.	.	.	.	.	.	.	.	.	.	.	.	.	.	.	.
.	.	16cc\JJ	.	.	.	.	.	.	.	.	.	.	.	.	.	.	.	.	.	.
*	*	*Xrep	*	*	*	*	*	*	*	*	*	*	*	*	*	*	*	*	*	*
!	!	!	!	!	!	!	!	!	!	!	!	!	!	!	!	!	!LO:LB:g=original	!	!	!
=19	=19	=19	=19	=19	=19	=19	=19	=19	=19	=19	=19	=19	=19	=19	=19	=19	=19	=19	=19	=19
1ryy	.	16g\LL	.	8bb-\	.	4En\	Spi-	.	4B-\	Spi-	4g\	ſpi-	4cc\	Spi-	.	1cc	2cc\	1cc	2bb-\	.
.	.	16cc\	.	.	.	.	.	.	.	.	.	.	.	.	.	.	.	.	.	.
.	.	16g\	.	4bb-\	.	.	.	.	.	.	.	.	.	.	.	.	.	.	.	.
.	.	16cc\	.	.	.	.	.	.	.	.	.	.	.	.	.	.	.	.	.	.
.	.	16g\	.	.	.	8E\	-ri-	.	8B-\	-ri-	8g\	-ri-	8cc\	-ri-	.	.	.	.	.	.
.	.	16cc\	.	.	.	.	.	.	.	.	.	.	.	.	.	.	.	.	.	.
.	.	16g\	.	8bb-\	.	8E\	-tum	.	8B-\	-tum	8g\	-tum	8cc\	-tum	.	.	.	.	.	.
.	.	16cc\JJ	.	.	.	.	.	.	.	.	.	.	.	.	.	.	.	.	.	.
*	*	*rep	*	*	*	*	*	*	*	*	*	*	*	*	*	*	*	*	*	*
.	.	16g\LL	.	8cc\ 8een\	.	4E\	Sanc-	.	4B-\	Sanc-	4g\	ſanc-	4cc\	ſanc-	.	.	2cc\	.	2eeX\	.
.	.	16cc\	.	.	.	.	.	.	.	.	.	.	.	.	.	.	.	.	.	.
.	.	16g\	.	4cc\ 4ee\	.	.	.	.	.	.	.	.	.	.	.	.	.	.	.	.
.	.	16cc\	.	.	.	.	.	.	.	.	.	.	.	.	.	.	.	.	.	.
.	.	16g\	.	.	.	4E\	-tu(m)	.	4B-\	-tum	4g\	-tu(m)	4cc\	-tum	.	.	.	.	.	.
.	.	16cc\	.	.	.	.	.	.	.	.	.	.	.	.	.	.	.	.	.	.
.	.	16g\	.	8cc\ 8ee\	.	.	.	.	.	.	.	.	.	.	.	.	.	.	.	.
.	.	16cc\JJ	.	.	.	.	.	.	.	.	.	.	.	.	.	.	.	.	.	.
*	*	*Xrep	*	*	*	*	*	*	*	*	*	*	*	*	*	*	*	*	*	*
!	!	!	!	!	!	!	!	!	!LO:LB:g=original	!	!	!	!LO:LB:g=original	!	!	!	!	!	!	!
=20	=20	=20	=20	=20	=20	=20	=20	=20	=20	=20	=20	=20	=20	=20	=20	=20	=20	=20	=20	=20
!!mixed beam:problem
!	!	!	!	!LO:TX:t=P:problem=mixed beam	!	!	!	!	!	!	!	!	!	!	!	!	!	!	!	!
1ryy	.	16a\LL	.	16ff\LL	.	4F\	Do-	.	4A\	Do-	4f\	Do-	8cc\	Do-	.	4f/	4cc\	1cc	2ff\	.
.	.	16cc\	.	16f/	.	.	.	.	.	.	.	.	.	.	.	.	.	.	.	.
.	.	16a\	.	16g/	.	.	.	.	.	.	.	.	4cc\	-mi-	.	.	.	.	.	.
.	.	16cc\	.	16a/JJ	.	.	.	.	.	.	.	.	.	.	.	.	.	.	.	.
.	.	16a\	.	16b-\LL	.	8F\	-mi-	.	8A\	-mi-	8f\	-mi-	.	.	.	8f/L	8cc\L	.	.	.
.	.	16cc\	.	16cc\	.	.	.	.	.	.	.	.	.	.	.	.	.	.	.	.
.	.	16a\	.	16dd\	.	8F\	-nu(m)	.	8A\	-num	8f\	-nu(m)	8cc\	-nu(m)	.	8f/J	8cc\J	.	.	.
.	.	16cc\JJ	.	16ee-\JJ	.	.	.	.	.	.	.	.	.	.	.	.	.	.	.	.
*	*	*rep	*	*	*	*	*	*	*	*	*	*	*	*	*	*	*	*	*	*
.	.	16a\LL	.	8ff\L	.	4F\	et	.	4A\	et	4f\	et	4cc\	et	.	4f/	4cc\	.	2aa\	.
.	.	16cc\	.	.	.	.	.	.	.	.	.	.	.	.	.	.	.	.	.	.
.	.	16a\	.	8cc\	.	.	.	.	.	.	.	.	.	.	.	.	.	.	.	.
.	.	16cc\	.	.	.	.	.	.	.	.	.	.	.	.	.	.	.	.	.	.
.	.	16a\	.	8aa\	.	4F\	vi-	.	4A\	vi-	4f\	vi-	4cc\	vi-	.	4r	4r	.	.	.
.	.	16cc\	.	.	.	.	.	.	.	.	.	.	.	.	.	.	.	.	.	.
.	.	16a\	.	8cc\J	.	.	.	.	.	.	.	.	.	.	.	.	.	.	.	.
.	.	16cc\JJ	.	.	.	.	.	.	.	.	.	.	.	.	.	.	.	.	.	.
*	*	*Xrep	*	*	*	*	*	*	*	*	*	*	*	*	*	*	*	*	*	*
!	!	!LO:LB:g=original	!	!LO:LB:g=original	!	!	!	!	!	!	!	!	!	!	!	!	!	!	!	!
=21	=21	=21	=21	=21	=21	=21	=21	=21	=21	=21	=21	=21	=21	=21	=21	=21	=21	=21	=21	=21
1ryy	.	16g\LL	.	8cc\ 8bb-\	.	4En\	-vi-	.	4B-\	-vi-	4g\	-vi-	4cc\	-vi-	.	1cc	2cc\	1cc	2bb-\	.
.	.	16cc\	.	.	.	.	.	.	.	.	.	.	.	.	.	.	.	.	.	.
.	.	16g\	.	4cc\ 4bb-\	.	.	.	.	.	.	.	.	.	.	.	.	.	.	.	.
.	.	16cc\	.	.	.	.	.	.	.	.	.	.	.	.	.	.	.	.	.	.
.	.	16g\	.	.	.	8E\	-fi-	.	4B-\	-fi-	4g\	-fi-	4cc\	-fi-	.	.	.	.	.	.
.	.	16cc\	.	.	.	.	.	.	.	.	.	.	.	.	.	.	.	.	.	.
.	.	16g\	.	8cc\ 8bb-\	.	8E\	-can-	.	.	.	.	.	.	.	.	.	.	.	.	.
.	.	16cc\JJ	.	.	.	.	.	.	.	.	.	.	.	.	.	.	.	.	.	.
*	*	*rep	*	*	*	*	*	*	*	*	*	*	*	*	*	*	*	*	*	*
.	.	16g\LL	.	8cc\ 8een\	.	4E\	.	.	4B-\	-can-	4g\	-can-	4cc\	-can-	.	.	2cc\	.	2eeX\	.
.	.	16cc\	.	.	.	.	.	.	.	.	.	.	.	.	.	.	.	.	.	.
.	.	16g\	.	4cc\ 4ee\	.	.	.	.	.	.	.	.	.	.	.	.	.	.	.	.
.	.	16cc\	.	.	.	.	.	.	.	.	.	.	.	.	.	.	.	.	.	.
.	.	16g\	.	.	.	4E\	-tem	.	4B-\	-tem	4g\	-te(m)	4cc\	-tem	.	.	.	.	.	.
.	.	16cc\	.	.	.	.	.	.	.	.	.	.	.	.	.	.	.	.	.	.
.	.	16g\	.	8cc\ 8ee\	.	.	.	.	.	.	.	.	.	.	.	.	.	.	.	.
.	.	16cc\JJ	.	.	.	.	.	.	.	.	.	.	.	.	.	.	.	.	.	.
*	*	*Xrep	*	*	*	*	*	*	*	*	*	*	*	*	*	*	*	*	*	*
!	!	!	!	!	!	!	!	!	!	!	!	!	!	!	!	!	!	!	!LO:LB:g=original	!
=22	=22	=22	=22	=22	=22	=22	=22	=22	=22	=22	=22	=22	=22	=22	=22	=22	=22	=22	=22	=22
1ryy	.	16f/LL 16a/	.	16ff\LL	.	4F\	Qui	.	4A\	qui	4f\	qui	4cc\	qui	.	4f/	4cc\	4cc\	1ff	.
.	.	16f/ 16a/	.	16ff\	.	.	.	.	.	.	.	.	.	.	.	.	.	.	.	.
.	.	16f/ 16a/	.	16ff\	.	.	.	.	.	.	.	.	.	.	.	.	.	.	.	.
.	.	16f/JJ 16a/	.	16ff\JJ	.	.	.	.	.	.	.	.	.	.	.	.	.	.	.	.
.	.	16f/LL	.	16ee-X\LL	.	4c\	ex	.	4A\	ex	4f\	ex	4ee-X\	ex	.	4r	4r	4ee-\	.	.
.	.	16f/	.	16ee-\	.	.	.	.	.	.	.	.	.	.	.	.	.	.	.	.
.	.	16f/	.	16ee-\	.	.	.	.	.	.	.	.	.	.	.	.	.	.	.	.
.	.	16f/	.	16ee-\JJ	.	.	.	.	.	.	.	.	.	.	.	.	.	.	.	.
.	.	16f/	.	16dd\LL	.	4B-\	Pa-	.	4B-\	Pa-	4f\	Pa-	4dd\	Pa-	.	2r	2r	4dd\	.	.
.	.	16f/	.	16dd\	.	.	.	.	.	.	.	.	.	.	.	.	.	.	.	.
.	.	16f/	.	16dd\	.	.	.	.	.	.	.	.	.	.	.	.	.	.	.	.
.	.	16f/JJ	.	16dd\JJ	.	.	.	.	.	.	.	.	.	.	.	.	.	.	.	.
.	.	16f/LL	.	16cc#X\LL	.	4A\	-tre	.	4c\	-tre	4f\	-tre	4cc\	-tre	.	.	.	4cc\	.	.
.	.	16f/	.	16cc#\	.	.	.	.	.	.	.	.	.	.	.	.	.	.	.	.
.	.	16f/	.	16cc#\	.	.	.	.	.	.	.	.	.	.	.	.	.	.	.	.
.	.	16f/JJ	.	16cc#\JJ	.	.	.	.	.	.	.	.	.	.	.	.	.	.	.	.
!	!	!	!	!	!	!LO:LB:g=original	!	!	!	!	!LO:LB:g=original	!	!	!	!	!	!	!LO:LB:g=original	!	!
=23	=23	=23	=23	=23	=23	=23	=23	=23	=23	=23	=23	=23	=23	=23	=23	=23	=23	=23	=23	=23
1ryy	.	16f/LL	.	16dd\LL	.	8B-\	et	.	8d\	Fi-	8f\	et	8dd\	fi-	.	1r	1r	4dd\	4ff\	.
.	.	16f/	.	16dd\	.	.	.	.	.	.	.	.	.	.	.	.	.	.	.	.
.	.	16f/	.	16dd\	.	8B-\	fi-	.	8B-\	-li-	8f\	fi-	8dd\	-li-	.	.	.	.	.	.
.	.	16f/	.	16dd\JJ	.	.	.	.	.	.	.	.	.	.	.	.	.	.	.	.
.	.	16f/	.	16bb-\LL	.	4d\	-lio-	.	4B-\	-o-	4b-\	-lio-	4ff\	-o-	.	.	.	4r	4bb-\	.
.	.	16f/	.	16bb-\	.	.	.	.	.	.	.	.	.	.	.	.	.	.	.	.
.	.	16f/	.	16bb-\	.	.	.	.	.	.	.	.	.	.	.	.	.	.	.	.
.	.	16f/JJ	.	16bb-\JJ	.	.	.	.	.	.	.	.	.	.	.	.	.	.	.	.
.	.	16f/LL	.	16aa\LL	.	4c\	-que	.	4c\	-que	4a\	-que	4ff\	-que	.	.	.	2ff\	4aa\	.
.	.	16f/	.	16aa\	.	.	.	.	.	.	.	.	.	.	.	.	.	.	.	.
.	.	16f/	.	16aa\	.	.	.	.	.	.	.	.	.	.	.	.	.	.	.	.
.	.	16f/	.	16aa\JJ	.	.	.	.	.	.	.	.	.	.	.	.	.	.	.	.
.	.	16f/	.	16gg\LL	.	4B-\	pro-	.	4d\	pro-	4g\	pro-	4ff\	pro-	.	.	.	.	4gg\	.
.	.	16f/	.	16gg\	.	.	.	.	.	.	.	.	.	.	.	.	.	.	.	.
.	.	16f/	.	16gg\	.	.	.	.	.	.	.	.	.	.	.	.	.	.	.	.
.	.	16f/JJ	.	16gg\JJ	.	.	.	.	.	.	.	.	.	.	.	.	.	.	.	.
!	!	!	!	!LO:LB:g=original	!	!	!	!	!	!	!	!	!	!	!	!	!	!	!	!
=24	=24	=24	=24	=24	=24	=24	=24	=24	=24	=24	=24	=24	=24	=24	=24	=24	=24	=24	=24	=24
*	*	*	*	*	*	*	*	*	*	*	*	*	*	*	*	*2\right	*	*	*	*
1ryy	.	16a/LL	.	16ff\LL	.	2c\	-ce-	.	2c\	-ce-	2a\	-ce-	2.ff\	-ce-	.	2cc\	2cc\	2.ff\	2aa\	.
.	.	16a/	.	16ff\	.	.	.	.	.	.	.	.	.	.	.	.	.	.	.	.
.	.	16a/	.	16ff\	.	.	.	.	.	.	.	.	.	.	.	.	.	.	.	.
.	.	16a/	.	16ff\JJ	.	.	.	.	.	.	.	.	.	.	.	.	.	.	.	.
.	.	16a/	.	16ff\LL	.	.	.	.	.	.	.	.	.	.	.	.	.	.	.	.
.	.	16a/	.	16ff\	.	.	.	.	.	.	.	.	.	.	.	.	.	.	.	.
.	.	16a/	.	16ff\	.	.	.	.	.	.	.	.	.	.	.	.	.	.	.	.
.	.	16a/JJ	.	16ff\JJ	.	.	.	.	.	.	.	.	.	.	.	.	.	.	.	.
.	.	16a/LL	.	16dd\LL	.	2C/	-dit	.	2c\	-dit	2g\	-dit	.	.	.	2cc\	2cc\	.	2gg\	.
.	.	16a/	.	16ff\	.	.	.	.	.	.	.	.	.	.	.	.	.	.	.	.
.	.	16a/	.	16ff\	.	.	.	.	.	.	.	.	.	.	.	.	.	.	.	.
.	.	16a/	.	16ff\JJ	.	.	.	.	.	.	.	.	.	.	.	.	.	.	.	.
.	.	16a/	.	16een\LL	.	.	.	.	.	.	.	.	4een\	-dit	.	.	.	4ee-\	.	.
.	.	16a/	.	16ee\	.	.	.	.	.	.	.	.	.	.	.	.	.	.	.	.
.	.	16a/	.	16ee\	.	.	.	.	.	.	.	.	.	.	.	.	.	.	.	.
.	.	16a/JJ	.	16ee\JJ	.	.	.	.	.	.	.	.	.	.	.	.	.	.	.	.
=25	=25	=25	=25	=25	=25	=25	=25	=25	=25	=25	=25	=25	=25	=25	=25	=25	=25	=25	=25	=25
1ryy	.	16a/LL	.	16ff\LL	.	4F\	Qui	.	4c\	qui	4a\	qui	4ff\	qui	.	4f/	4cc\	4ff\	4ff\	.
.	.	16a/	.	16ff\	.	.	.	.	.	.	.	.	.	.	.	.	.	.	.	.
.	.	16a/	.	16ff\	.	.	.	.	.	.	.	.	.	.	.	.	.	.	.	.
.	.	16a/JJ	.	16ff\JJ	.	.	.	.	.	.	.	.	.	.	.	.	.	.	.	.
.	.	16g/LL	.	16een\LL	.	4G\	lo-	.	4e-\	cu(m)	4g\	cu(m)	4ee-\	cu(m)	.	4r	4r	4b-\	4eeX\	.
.	.	16g/	.	16ee\	.	.	.	.	.	.	.	.	.	.	.	.	.	.	.	.
.	.	16g/	.	16ee\	.	.	.	.	.	.	.	.	.	.	.	.	.	.	.	.
.	.	16g/JJ	.	16ee\JJ	.	.	.	.	.	.	.	.	.	.	.	.	.	.	.	.
.	.	16f/LL	.	16dd\LL	.	4A\	-cu-	.	4A\	Pa-	4f\	Pa-	4dd\	Pa-	.	2r	2r	2a\	4dd\	.
.	.	16f/	.	16dd\	.	.	.	.	.	.	.	.	.	.	.	.	.	.	.	.
.	.	16f/	.	16dd\	.	.	.	.	.	.	.	.	.	.	.	.	.	.	.	.
.	.	16f/JJ	.	16dd\JJ	.	.	.	.	.	.	.	.	.	.	.	.	.	.	.	.
*	*	*	*	*tremolo	*	*	*	*	*	*	*	*	*	*	*	*	*	*	*	*
.	.	16en/LL	.	16cc#X\LL	.	4A\	-tus	.	8A\	-tre	8en\	-tre	8cc#X\	-tre	.	.	.	.	4cc-X\	.
.	.	16e/	.	16cc#\	.	.	.	.	.	.	.	.	.	.	.	.	.	.	.	.
.	.	16e/	.	16cc#\	.	.	.	.	8A\	et	8e\	et	8cc#\	et	.	.	.	.	.	.
.	.	16e/JJ	.	16cc#\JJ	.	.	.	.	.	.	.	.	.	.	.	.	.	.	.	.
*	*	*	*	*Xtremolo	*	*	*	*	*	*	*	*	*	*	*	*	*	*	*	*
!	!	!	!	!	!	!	!	!	!LO:LB:g=original	!	!	!	!	!	!	!	!	!	!	!
=26	=26	=26	=26	=26	=26	=26	=26	=26	=26	=26	=26	=26	=26	=26	=26	=26	=26	=26	=26	=26
1ryy	.	16f/LL	.	16dd\LL	.	4D\	est	.	4A\	Fi-	4f\	Fi-	4dd\	fi-	.	0r	0r	1dd	4dd\	.
.	.	16f/	.	16dd\	.	.	.	.	.	.	.	.	.	.	.	.	.	.	.	.
.	.	16f/	.	16dd\	.	.	.	.	.	.	.	.	.	.	.	.	.	.	.	.
.	.	16f/JJ	.	16dd\JJ	.	.	.	.	.	.	.	.	.	.	.	.	.	.	.	.
.	.	16dd\LL	.	16ccc\LL	.	4F#X\	per	.	8c\	-li-	8a\	-li-	8dd\	-li-	.	.	.	.	4ccc\	.
.	.	16dd\	.	16ccc\	.	.	.	.	.	.	.	.	.	.	.	.	.	.	.	.
.	.	16dd\	.	16ccc\	.	.	.	.	8c\	-o	8a\	-o	8dd\	-o	.	.	.	.	.	.
.	.	16dd\	.	16ccc\JJ	.	.	.	.	.	.	.	.	.	.	.	.	.	.	.	.
!	!	!	!	!	!	!	!	!	!	!	!	!	!LO:LB:g=original	!	!	!	!	!	!	!
.	.	16dd\	.	16bb-X\LL	.	(>4G\	pro-	.	4B-\	si-	4g\	Si-	4dd\	Si-	.	.	.	.	4bb-\	.
.	.	16dd\	.	16bb-\	.	.	.	.	.	.	.	.	.	.	.	.	.	.	.	.
.	.	16dd\	.	16bb-\	.	.	.	.	.	.	.	.	.	.	.	.	.	.	.	.
.	.	16dd\JJ	.	16bb-\JJ	.	.	.	.	.	.	.	.	.	.	.	.	.	.	.	.
!	!	!	!	!LO:LB:g=original	!	!	!	!	!	!	!	!	!	!	!	!	!	!	!	!
.	.	16cc\LL	.	16aa\LL	.	4D\)	.	.	4A\	-mul	4a\	-mul	4dd\	-mul	.	.	.	.	4aa\	.
.	.	16cc\	.	16aa\	.	.	.	.	.	.	.	.	.	.	.	.	.	.	.	.
.	.	16cc\	.	16aa\	.	.	.	.	.	.	.	.	.	.	.	.	.	.	.	.
.	.	16cc\JJ	.	16aa\JJ	.	.	.	.	.	.	.	.	.	.	.	.	.	.	.	.
=27	=27	=27	=27	=27	=27	=27	=27	=27	=27	=27	=27	=27	=27	=27	=27	=27-	=27-	=27	=27	=27
1ryy	.	16cc\LL	.	16gg\LL	.	4Gn\	.	.	4G\	a-	4g\	a-	4dd\	a-	.	.	.	4dd\	4ff\	.
.	.	16cc\	.	16gg\	.	.	.	.	.	.	.	.	.	.	.	.	.	.	.	.
.	.	16cc\	.	16gg\	.	.	.	.	.	.	.	.	.	.	.	.	.	.	.	.
.	.	16cc\JJ	.	16gg\JJ	.	.	.	.	.	.	.	.	.	.	.	.	.	.	.	.
.	.	16g/LL	.	16ff\LL	.	4Bn\	.	.	4d\	-do-	4g\	-do-	4ff\	-do-	.	.	.	4dd\	4eeX\	.
.	.	16g/	.	16ff\	.	.	.	.	.	.	.	.	.	.	.	.	.	.	.	.
.	.	16g/	.	16ff\	.	.	.	.	.	.	.	.	.	.	.	.	.	.	.	.
.	.	16g/	.	16ff\JJ	.	.	.	.	.	.	.	.	.	.	.	.	.	.	.	.
.	.	16g/	.	16een\LL	.	4c\	.	.	4c\	-ra-	4g\	-ra-	4een\	-ra-	.	.	.	4ee-\	4dd\	.
.	.	16g/	.	16ee\	.	.	.	.	.	.	.	.	.	.	.	.	.	.	.	.
.	.	16g/	.	16ee\	.	.	.	.	.	.	.	.	.	.	.	.	.	.	.	.
.	.	16g/JJ	.	16ee\JJ	.	.	.	.	.	.	.	.	.	.	.	.	.	.	.	.
.	.	16f/LL	.	16dd\LL	.	4G\	.	.	8Bn\	-tur	8g\	-tur	8dd\	-tur	.	.	.	4dd\	4cc\	.
.	.	16f/	.	16dd\	.	.	.	.	.	.	.	.	.	.	.	.	.	.	.	.
.	.	16f/	.	16dd\	.	.	.	.	8B\	et	8g\	et	8dd\	et	.	.	.	.	.	.
.	.	16f/JJ	.	16dd\JJ	.	.	.	.	.	.	.	.	.	.	.	.	.	.	.	.
!	!	!	!	!	!	!	!	!	!	!	!LO:LB:g=original	!	!	!	!	!	!	!	!	!
=28	=28	=28	=28	=28	=28	=28	=28	=28	=28	=28	=28	=28	=28	=28	=28	=28-	=28-	=28	=28	=28
1ryy	.	16en/LL	.	16cc\LL	.	4c\	.	.	4c\	Con-	4g\	con-	2cc\	Con-	.	1r	1r	4cc\	4cc\	.
.	.	16e/	.	16cc\	.	.	.	.	.	.	.	.	.	.	.	.	.	.	.	.
.	.	16e/	.	16cc\	.	.	.	.	.	.	.	.	.	.	.	.	.	.	.	.
.	.	16e/JJ	.	16cc\JJ	.	.	.	.	.	.	.	.	.	.	.	.	.	.	.	.
.	.	16cc\LL	.	16cc\LL	.	4En\	.	.	4B-X\	-glo-	4g\	-glo-	.	.	.	.	.	2cc\	4bb-\	.
.	.	16cc\	.	16cc\	.	.	.	.	.	.	.	.	.	.	.	.	.	.	.	.
.	.	16cc\	.	16bb-\	.	.	.	.	.	.	.	.	.	.	.	.	.	.	.	.
.	.	16cc\	.	16bb-\JJ	.	.	.	.	.	.	.	.	.	.	.	.	.	.	.	.
.	.	16cc\	.	16aa\LL	.	4F\	.	.	4A\	-ri-	4a\	-ri-	2cc\	-glo-	.	.	.	.	4aa\	.
.	.	16cc\	.	16aa\	.	.	.	.	.	.	.	.	.	.	.	.	.	.	.	.
.	.	16cc\	.	16aa\	.	.	.	.	.	.	.	.	.	.	.	.	.	.	.	.
.	.	16cc\JJ	.	16aa\JJ	.	.	.	.	.	.	.	.	.	.	.	.	.	.	.	.
.	.	16b-\LL	.	16gg\LL	.	4B-\	.	.	4en\	-fi-	4g\	-fi-	.	.	.	.	.	4cc\	4gg\	.
.	.	16b-\	.	16gg\	.	.	.	.	.	.	.	.	.	.	.	.	.	.	.	.
.	.	16b-\	.	16gg\	.	.	.	.	.	.	.	.	.	.	.	.	.	.	.	.
.	.	16b-\JJ	.	16gg\JJ	.	.	.	.	.	.	.	.	.	.	.	.	.	.	.	.
!	!	!	!	!	!	!LO:LB:g=original	!	!	!	!	!	!	!	!	!	!	!	!	!	!
=29	=29	=29	=29	=29	=29	=29	=29	=29	=29	=29	=29	=29	=29	=29	=29	=29	=29	=29	=29	=29
!	!	!	!	!	!	!	!	!	!	!	!LO:SIC:v:s:t=[1f	!	!	!	!	!	!	!	!	!
1ryy	.	16a/LL	.	16ff\LL	.	4A\	.	.	4f\	-ca-	1f	-ca-	4cc\	-ri-	.	4f/	4cc\	4cc\	4ff\	.
.	.	16a/	.	16ff\	.	.	.	.	.	.	.	.	.	.	.	.	.	.	.	.
.	.	16a/	.	16ff\	.	.	.	.	.	.	.	.	.	.	.	.	.	.	.	.
.	.	16a/JJ	.	16ff\JJ	.	.	.	.	.	.	.	.	.	.	.	.	.	.	.	.
.	.	16f/LL	.	16ee-X\LL	.	4c\	.	.	4A\	.	.	.	4ee-X\	-fi-	.	4cc\	4ee-\	4ee-\	4ee-X\	.
.	.	16f/	.	16ee-\	.	.	.	.	.	.	.	.	.	.	.	.	.	.	.	.
.	.	16f/	.	16ee-\	.	.	.	.	.	.	.	.	.	.	.	.	.	.	.	.
.	.	16f/	.	16ee-\JJ	.	.	.	.	.	.	.	.	.	.	.	.	.	.	.	.
!	!	!	!	!LO:LB:g=original	!	!	!	!	!	!	!	!	!	!	!	!	!	!	!	!
.	.	16f/	.	16dd\LL	.	4B-\	.	.	4B-\	.	.	.	4dd\	-ca-	.	4b-\	4dd\	4dd\	4dd\	.
.	.	16f/	.	16dd\	.	.	.	.	.	.	.	.	.	.	.	.	.	.	.	.
.	.	16f/	.	16dd\	.	.	.	.	.	.	.	.	.	.	.	.	.	.	.	.
.	.	16f/JJ	.	16dd\JJ	.	.	.	.	.	.	.	.	.	.	.	.	.	.	.	.
.	.	16f/LL	.	16cc\LL	.	4A\	.	.	4c\	.	.	.	4cc\	.	.	4f/	4cc\	4cc\	4cc\	.
.	.	16f/	.	16cc\	.	.	.	.	.	.	.	.	.	.	.	.	.	.	.	.
.	.	16f/	.	16cc\	.	.	.	.	.	.	.	.	.	.	.	.	.	.	.	.
.	.	16f/JJ	.	16cc\JJ	.	.	.	.	.	.	.	.	.	.	.	.	.	.	.	.
!	!	!LO:LB:g=original	!	!	!	!	!	!	!	!	!	!	!	!	!	!	!	!	!	!
=30	=30	=30	=30	=30	=30	=30	=30	=30	=30	=30	=30	=30	=30	=30	=30	=30	=30	=30	=30	=30
!	!	!	!	!	!	!	!	!	!	!	!LO:SIC:v:s:t=4f\]	!	!	!	!	!	!	!	!	!
1ryy	.	16f/LL	.	16dd\LL	.	4B-\	.	.	4B-\	.	4f\	.	4dd\	.	.	4b-\	4dd\	4dd\	4dd\	.
.	.	16f/	.	16dd\	.	.	.	.	.	.	.	.	.	.	.	.	.	.	.	.
.	.	16f/	.	16dd\	.	.	.	.	.	.	.	.	.	.	.	.	.	.	.	.
.	.	16f/JJ	.	16dd\JJ	.	.	.	.	.	.	.	.	.	.	.	.	.	.	.	.
.	.	16b-\LL	.	16een\LL	.	4G\	-phe-	.	4c\	.	4b-\	.	4een\	.	.	4cc\	4cc\	4b-\	4eeX\	.
.	.	16b-\	.	16ee\	.	.	.	.	.	.	.	.	.	.	.	.	.	.	.	.
.	.	16b-\	.	16ee\	.	.	.	.	.	.	.	.	.	.	.	.	.	.	.	.
.	.	16b-\JJ	.	16ee\JJ	.	.	.	.	.	.	.	.	.	.	.	.	.	.	.	.
*	*	*Xtremolo	*	*	*	*	*	*	*	*	*	*	*	*	*	*	*	*	*	*
.	.	4a/	.	4ff\	.	4F\	-tas	.	4c\	-tur	4a\	-tur	4ff\	-tur	.	4f/	4cc\	4a\	4ff\	.
!	!	!	!	!	!	!	!	!	!	!	!	!	!	!	!	!LO:TX:b:i:t=V&colon; S&colon;	!	!	!	!
.	.	4r	.	4r	.	4r	.	.	4r	.	4r	.	4r	.	.	4r	4r	4r	4r	.
!	!	!	!	!	!	!	!	!	!	!	!	!	!	!	!	!LO:PB:g=original	!	!	!LO:LB:g=original	!
=31	=31	=31	=31	=31	=31	=31	=31	=31	=31	=31	=31	=31	=31	=31	=31	=31	=31	=31	=31	=31
!	!	!	!LO:DY:a:t=p.	!	!LO:DY:a:t=p.	!	!	!	!	!	!	!	!LO:TX:a:t=25	!	!	!LO:TX:a:i:t=Solo	!LO:TX:a:i:t=Solo	!	!LO:TX:a:i:t=Solo	!
1ryy	.	4B-/	p	4B-/	p	00r	.	.	00r	.	00r	.	1r	.	.	4d/	4b-\	4b-\	4b-\	.
.	.	4B-/	.	4B-/	.	.	.	.	.	.	.	.	.	.	.	2d/	2b-\	2b-\	2b-\	.
.	.	4d/	.	4d/	.	.	.	.	.	.	.	.	.	.	.	.	.	.	.	.
.	.	4f/	.	4f/	.	.	.	.	.	.	.	.	.	.	.	4f/	4cc\	4a\	4cc\	.
!	!	!	!	!	!	!	!	!	!	!	!	!	!	!	!	!	!	!LO:LB:g=original	!	!
=32	=32	=32	=32	=32	=32	=32-	=32	=32	=32-	=32	=32-	=32	=32-	=32	=32	=32	=32	=32	=32	=32
1ryy	.	4b-\	.	4b-\	.	.	.	.	.	.	.	.	1r	.	.	4b-\	4dd\	4b-\	4dd\	.
.	.	4r	.	4r	.	.	.	.	.	.	.	.	.	.	.	4cc\	4ee-\	4cc\	4ee-\	.
.	.	2r	.	2r	.	.	.	.	.	.	.	.	.	.	.	4dd\	4ff\	4dd\	4ff\	.
.	.	.	.	.	.	.	.	.	.	.	.	.	.	.	.	4r	4r	4r	4r	.
=33	=33	=33	=33	=33	=33	=33-	=33	=33	=33-	=33	=33-	=33	=33-	=33	=33	=33	=33	=33	=33	=33
!	!	!LO:TX:t=P:problem=takty 33-39 zapisane na dolnym marginesie strony, na dopisanej pięciolini, z odsyłaczem vi-de re-tro	!	!	!	!	!	!	!	!	!	!	!	!	!	!	!	!	!	!
1ryy	.	8r	.	8r	.	.	.	.	.	.	.	.	1r	.	.	0r	0r	0r	0r	.
!	!	!	!	!LO:TX:a:t=|:problem	!	!	!	!	!	!	!	!	!	!	!	!	!	!	!	!
.	.	8dd\L	.	8ff\L	.	.	.	.	.	.	.	.	.	.	.	.	.	.	.	.
.	.	8cc\	.	(>8ee-\	.	.	.	.	.	.	.	.	.	.	.	.	.	.	.	.
.	.	8b-\J	.	8dd\J)	.	.	.	.	.	.	.	.	.	.	.	.	.	.	.	.
.	.	8b-\L	.	8dd\L	.	.	.	.	.	.	.	.	.	.	.	.	.	.	.	.
.	.	8a\	.	8cc\	.	.	.	.	.	.	.	.	.	.	.	.	.	.	.	.
.	.	8a\	.	8cc\	.	.	.	.	.	.	.	.	.	.	.	.	.	.	.	.
.	.	8a\J	.	8cc\J	.	.	.	.	.	.	.	.	.	.	.	.	.	.	.	.
=34	=34	=34	=34	=34	=34	=34-	=34	=34	=34-	=34	=34-	=34	=34-	=34	=34	=34-	=34-	=34-	=34-	=34
1ryy	.	8r	.	8r	.	.	.	.	.	.	.	.	1r	.	.	.	.	.	.	.
.	.	8a\L	.	8cc\L	.	.	.	.	.	.	.	.	.	.	.	.	.	.	.	.
.	.	8b-\	.	8dd\	.	.	.	.	.	.	.	.	.	.	.	.	.	.	.	.
.	.	8cc\J	.	8ee-\J	.	.	.	.	.	.	.	.	.	.	.	.	.	.	.	.
!	!	!	!	!LO:LB:g=original	!	!	!	!	!	!	!	!	!	!	!	!	!	!	!	!
.	.	8cc\L	.	8ee-\L	.	.	.	.	.	.	.	.	.	.	.	.	.	.	.	.
.	.	8b-\	.	8dd\	.	.	.	.	.	.	.	.	.	.	.	.	.	.	.	.
.	.	8ee-\	.	8gg\	.	.	.	.	.	.	.	.	.	.	.	.	.	.	.	.
.	.	8dd\J	.	8ff\J	.	.	.	.	.	.	.	.	.	.	.	.	.	.	.	.
!	!	!	!	!	!	!	!	!	!	!	!	!	!	!	!	!	!LO:PB:g=original	!	!	!
=35	=35	=35	=35	=35	=35	=35-	=35	=35	=35-	=35	=35-	=35	=35-	=35	=35	=35	=35	=35	=35	=35
1ryy	.	4r	.	4r	.	00r	.	.	00r	.	00r	.	1r	.	.	4d/	4b-\	4b-\	4bb-\	.
.	.	4B-/	.	4B-/	.	.	.	.	.	.	.	.	.	.	.	2d/	2b-\	2b-\	2b-\	.
.	.	4d/	.	4d/	.	.	.	.	.	.	.	.	.	.	.	.	.	.	.	.
.	.	4f/	.	4f/	.	.	.	.	.	.	.	.	.	.	.	4f/	4cc\	4a\	4cc\	.
=36	=36	=36	=36	=36	=36	=36-	=36	=36	=36-	=36	=36-	=36	=36-	=36	=36	=36	=36	=36	=36	=36
1ryy	.	4b-\	.	4b-\	.	.	.	.	.	.	.	.	1r	.	.	4b-\	4dd\	4b-\	4dd\	.
.	.	4r	.	4r	.	.	.	.	.	.	.	.	.	.	.	4cc\	4ee-\	4cc\	4ee-\	.
.	.	2r	.	2r	.	.	.	.	.	.	.	.	.	.	.	4dd\	4ff\	4dd\	4ff\	.
.	.	.	.	.	.	.	.	.	.	.	.	.	.	.	.	4r	4r	4ee-\	8bb-\L	.
.	.	.	.	.	.	.	.	.	.	.	.	.	.	.	.	.	.	.	8gg\J	.
=37	=37	=37	=37	=37	=37	=37-	=37	=37	=37-	=37	=37-	=37	=37-	=37	=37	=37	=37	=37	=37	=37
1ryy	.	4r	.	4r	.	.	.	.	.	.	.	.	1r	.	.	4r	4r	4dd\	4ff\	.
.	.	4B-/	.	4B-/	.	.	.	.	.	.	.	.	.	.	.	4b-\	4dd\	8ee-\L	8gg\L	.
.	.	.	.	.	.	.	.	.	.	.	.	.	.	.	.	.	.	8dd\J	8ff\J	.
.	.	4d/	.	4d/	.	.	.	.	.	.	.	.	.	.	.	8dd\L	8ff\L	8dd\L	8ff\L	.
.	.	.	.	.	.	.	.	.	.	.	.	.	.	.	.	8cc\	8ee-\	8cc\	8ee-\	.
.	.	4f/	.	4f/	.	.	.	.	.	.	.	.	.	.	.	8b-\	8dd\	8b-\	8dd\	.
.	.	.	.	.	.	.	.	.	.	.	.	.	.	.	.	8f\J	8cc\J	8a\J	8cc\J	.
=38	=38	=38	=38	=38	=38	=38-	=38	=38	=38-	=38	=38-	=38	=38-	=38	=38	=38	=38	=38	=38	=38
1ryy	.	4B-/	.	4B-/	.	.	.	.	.	.	.	.	1r	.	.	4d/	4b-\	4b-\	4b-\	.
.	.	8B-/L	.	8B-/L	.	.	.	.	.	.	.	.	.	.	.	8d/L	8b-\L	8b-\L	8b-\L	.
.	.	8B-/J	.	8B-/J	.	.	.	.	.	.	.	.	.	.	.	8d/J	8b-\J	8b-\J	8b-\J	.
.	.	4B-/	.	4B-/	.	.	.	.	.	.	.	.	.	.	.	4d/	4b-\	4b-\	4b-\	.
.	.	4r	.	4r	.	.	.	.	.	.	.	.	.	.	.	4r	4r	4r	4r	.
=39	=39	=39	=39	=39	=39	=39-	=39	=39	=39	=39	=39-	=39	=39-	=39	=39	=39	=39	=39	=39	=39
!	!	!	!	!	!	!	!	!	!	!	!	!	!	!	!	!LO:TX:a:t=17	!LO:TX:a:t=17	!	!LO:TX:a:t=17	!
1ryy	.	1cc	.	8r	.	00r	.	.	1d	et	00r	.	1r	.	.	1r	1r	00r	1r	.
.	.	.	.	8dd\L	.	.	.	.	.	.	.	.	.	.	.	.	.	.	.	.
.	.	.	.	8dd\	.	.	.	.	.	.	.	.	.	.	.	.	.	.	.	.
.	.	.	.	8dd\J	.	.	.	.	.	.	.	.	.	.	.	.	.	.	.	.
.	.	.	.	8cc\L	.	.	.	.	.	.	.	.	.	.	.	.	.	.	.	.
.	.	.	.	8b-\J	.	.	.	.	.	.	.	.	.	.	.	.	.	.	.	.
.	.	.	.	8ee-\L	.	.	.	.	.	.	.	.	.	.	.	.	.	.	.	.
.	.	.	.	8dd\J	.	.	.	.	.	.	.	.	.	.	.	.	.	.	.	.
=40	=40	=40	=40	=40	=40	=40-	=40	=40	=40	=40	=40-	=40	=40-	=40	=40	=40-	=40-	=40-	=40-	=40
1ryy	.	8r	.	1dd	.	.	.	.	2d\	u-	.	.	1r	.	.	1r	1r	.	1r	.
.	.	8a/L	.	.	.	.	.	.	.	.	.	.	.	.	.	.	.	.	.	.
.	.	8f#X/	.	.	.	.	.	.	.	.	.	.	.	.	.	.	.	.	.	.
.	.	8g/J	.	.	.	.	.	.	.	.	.	.	.	.	.	.	.	.	.	.
.	.	8a/L	.	.	.	.	.	.	2d\	-nam	.	.	.	.	.	.	.	.	.	.
.	.	8b-/	.	.	.	.	.	.	.	.	.	.	.	.	.	.	.	.	.	.
.	.	8cc/	.	.	.	.	.	.	.	.	.	.	.	.	.	.	.	.	.	.
.	.	8a/J	.	.	.	.	.	.	.	.	.	.	.	.	.	.	.	.	.	.
!	!	!	!	!LO:LB:g=original	!	!	!	!	!LO:LB:g=original	!	!	!	!	!	!	!	!	!	!	!
=41	=41	=41	=41	=41	=41	=41-	=41	=41	=41	=41	=41-	=41	=41-	=41	=41	=41-	=41-	=41-	=41-	=41
1ryy	.	4b-\	.	8r	.	.	.	.	2d\	San-	.	.	1r	.	.	1r	1r	.	1r	.
.	.	.	.	8dd\L	.	.	.	.	.	.	.	.	.	.	.	.	.	.	.	.
.	.	4r	.	8dd\	.	.	.	.	.	.	.	.	.	.	.	.	.	.	.	.
.	.	.	.	8dd\J	.	.	.	.	.	.	.	.	.	.	.	.	.	.	.	.
!	!	!	!	!LO:TX:a:t=|:problem	!	!	!	!	!	!	!	!	!	!	!	!	!	!	!	!
.	.	2r	.	8cc\L	.	.	.	.	4d\	-cta(m)	.	.	.	.	.	.	.	.	.	.
!	!	!	!	!LO:TX:a:t=|:problem	!	!	!	!	!	!	!	!	!	!	!	!	!	!	!	!
.	.	.	.	8b-\J	.	.	.	.	.	.	.	.	.	.	.	.	.	.	.	.
.	.	.	.	(>8ee-\L	.	.	.	.	4d\	Ca-	.	.	.	.	.	.	.	.	.	.
.	.	.	.	8dd\J)	.	.	.	.	.	.	.	.	.	.	.	.	.	.	.	.
=42	=42	=42	=42	=42	=42	=42-	=42	=42	=42	=42	=42-	=42	=42-	=42	=42	=42-	=42-	=42-	=42-	=42
1ryy	.	8r	.	1dd	.	.	.	.	4.d\	-tho-	.	.	1r	.	.	1r	1r	.	1r	.
.	.	8a/L	.	.	.	.	.	.	.	.	.	.	.	.	.	.	.	.	.	.
.	.	8f#X/	.	.	.	.	.	.	.	.	.	.	.	.	.	.	.	.	.	.
.	.	8g/J	.	.	.	.	.	.	8d\	-li-	.	.	.	.	.	.	.	.	.	.
.	.	8a/L	.	.	.	.	.	.	4d\	-ca(m)	.	.	.	.	.	.	.	.	.	.
.	.	8b-/	.	.	.	.	.	.	.	.	.	.	.	.	.	.	.	.	.	.
.	.	8cc/	.	.	.	.	.	.	4d\	et	.	.	.	.	.	.	.	.	.	.
.	.	8a/J	.	.	.	.	.	.	.	.	.	.	.	.	.	.	.	.	.	.
=43	=43	=43	=43	=43	=43	=43-	=43	=43	=43	=43	=43-	=43	=43-	=43	=43	=43-	=43-	=43-	=43-	=43
1ryy	.	4b-/	.	8r	.	1r	.	.	4d\	a-	00r	.	1r	.	.	1r	1r	00r	1r	.
.	.	.	.	8dd\L	.	.	.	.	.	.	.	.	.	.	.	.	.	.	.	.
.	.	4g/	.	8gg\	.	.	.	.	4g\	-po-	.	.	.	.	.	.	.	.	.	.
.	.	.	.	8gg\J	.	.	.	.	.	.	.	.	.	.	.	.	.	.	.	.
.	.	2r	.	8gg\L	.	.	.	.	8g\L	-sto-	.	.	.	.	.	.	.	.	.	.
.	.	.	.	8ff\J	.	.	.	.	8f\J	.	.	.	.	.	.	.	.	.	.	.
.	.	.	.	8dd\L	.	.	.	.	8e-\L	-li-	.	.	.	.	.	.	.	.	.	.
.	.	.	.	8ff\J	.	.	.	.	8f\J	.	.	.	.	.	.	.	.	.	.	.
=44	=44	=44	=44	=44	=44	=44	=44	=44	=44	=44	=44-	=44	=44-	=44	=44	=44-	=44-	=44-	=44-	=44
1ryy	.	8r	.	4ee-\	.	4r	.	.	4e-X\	-cam	.	.	1r	.	.	1r	1r	.	1r	.
!	!	!LO:TX:a:t=|:problem	!	!	!	!	!	!	!	!	!	!	!	!	!	!	!	!	!	!
.	.	8g\L	.	.	.	.	.	.	.	.	.	.	.	.	.	.	.	.	.	.
!	!	!	!	!	!	!LO:TX:a:i:t=Solo:rj	!	!	!	!	!	!	!	!	!	!	!	!	!	!
.	.	[>8cc\	.	4r	.	4c\	Ec-	.	4r	.	.	.	.	.	.	.	.	.	.	.
.	.	8cc\J]	.	.	.	.	.	.	.	.	.	.	.	.	.	.	.	.	.	.
!	!	!LO:LB:g=original	!	!	!	!	!	!	!	!	!	!	!	!	!	!	!	!	!	!
.	.	(>8cc\L	.	2r	.	8c\L	-cle-	.	2r	.	.	.	.	.	.	.	.	.	.	.
.	.	8b-\	.	.	.	8B-\J	.	.	.	.	.	.	.	.	.	.	.	.	.	.
.	.	8g\)	.	.	.	8G\L	-si-	.	.	.	.	.	.	.	.	.	.	.	.	.
.	.	8b-\J	.	.	.	8B-\J	.	.	.	.	.	.	.	.	.	.	.	.	.	.
=45	=45	=45	=45	=45	=45	=45	=45	=45	=45	=45	=45-	=45	=45-	=45	=45	=45-	=45-	=45-	=45-	=45
1ryy	.	4a/	.	8r	.	4A\	-am	.	4r	.	.	.	1r	.	.	1r	1r	.	1r	.
.	.	.	.	8cc\L	.	.	.	.	.	.	.	.	.	.	.	.	.	.	.	.
.	.	4r	.	8ff\	.	4r	.	.	4c\	Con-	.	.	.	.	.	.	.	.	.	.
.	.	.	.	8ff\J	.	.	.	.	.	.	.	.	.	.	.	.	.	.	.	.
.	.	2r	.	8ff\L	.	2r	.	.	8f\L	-fi-	.	.	.	.	.	.	.	.	.	.
.	.	.	.	8ee-\	.	.	.	.	8e-\J	.	.	.	.	.	.	.	.	.	.	.
.	.	.	.	8cc\	.	.	.	.	8c\L	-te-	.	.	.	.	.	.	.	.	.	.
.	.	.	.	8ee-\J	.	.	.	.	8e-\J	.	.	.	.	.	.	.	.	.	.	.
=46	=46	=46	=46	=46	=46	=46	=46	=46	=46	=46	=46-	=46	=46-	=46	=46	=46-	=46-	=46-	=46-	=46
1ryy	.	8r	.	4dd\	.	8r	.	.	4d\	-or	.	.	1r	.	.	1r	1r	.	1r	.
!	!	!LO:TX:b:t=|:problem	!	!	!	!	!	!	!	!	!	!	!	!	!	!	!	!	!	!
.	.	8e-/L	.	.	.	8F\	u-	.	.	.	.	.	.	.	.	.	.	.	.	.
.	.	[<8b-/	.	4r	.	8B-\	-num	.	4r	.	.	.	.	.	.	.	.	.	.	.
.	.	8b-/J]	.	.	.	8B-\	Bap-	.	.	.	.	.	.	.	.	.	.	.	.	.
.	.	8b-/L	.	2r	.	8B-\L	-tis-	.	2r	.	.	.	.	.	.	.	.	.	.	.
.	.	8a/	.	.	.	8A\	.	.	.	.	.	.	.	.	.	.	.	.	.	.
.	.	8f/	.	.	.	8F\	-mam	.	.	.	.	.	.	.	.	.	.	.	.	.
.	.	8a/J	.	.	.	8A\J	.	.	.	.	.	.	.	.	.	.	.	.	.	.
!	!	!	!	!LO:LB:g=original	!	!LO:LB:g=original	!	!	!	!	!	!	!	!	!	!	!	!	!	!
=47	=47	=47	=47	=47	=47	=47	=47	=47	=47	=47	=47-	=47	=47-	=47	=47	=47-	=47-	=47-	=47-	=47
1ryy	.	4g/	.	8r	.	4G\	.	.	8r	.	00r	.	1r	.	.	1r	1r	00r	1r	.
.	.	.	.	8b-\L	.	.	.	.	8B-\L	in	.	.	.	.	.	.	.	.	.	.
.	.	4r	.	8ee-\	.	4r	.	.	8e-\J	.	.	.	.	.	.	.	.	.	.	.
.	.	.	.	8ee-\J	.	.	.	.	8e-\	re-	.	.	.	.	.	.	.	.	.	.
.	.	2r	.	8ee-\L	.	2r	.	.	8e-\L	-miſ-	.	.	.	.	.	.	.	.	.	.
.	.	.	.	8dd\	.	.	.	.	8d\J	.	.	.	.	.	.	.	.	.	.	.
.	.	.	.	8b-\	.	.	.	.	8B-\L	-si-	.	.	.	.	.	.	.	.	.	.
.	.	.	.	8dd\J	.	.	.	.	8d\J	.	.	.	.	.	.	.	.	.	.	.
!	!	!	!	!	!	!	!	!	!LO:PB:g=original	!	!	!	!	!	!	!	!	!	!	!
=48	=48	=48	=48	=48	=48	=48	=48	=48	=48	=48	=48-	=48	=48-	=48	=48	=48-	=48-	=48-	=48-	=48
1ryy	.	8r	.	4cc\	.	8r	.	.	4c\	-o-	.	.	1r	.	.	1r	1r	.	1r	.
!	!	!LO:TX:b:t=|:problem	!	!	!	!	!	!	!	!	!	!	!	!	!	!	!	!	!	!
.	.	8e-/L	.	.	.	8E-\L	pec-	.	.	.	.	.	.	.	.	.	.	.	.	.
.	.	[<8g/	.	4r	.	8A\J	.	.	4B-\	-nem	.	.	.	.	.	.	.	.	.	.
.	.	8g/J]	.	.	.	8A\	-ca-	.	.	.	.	.	.	.	.	.	.	.	.	.
.	.	8g/L	.	2r	.	8A\L	-to-	.	2r	.	.	.	.	.	.	.	.	.	.	.
.	.	8g/	.	.	.	8G\	.	.	.	.	.	.	.	.	.	.	.	.	.	.
.	.	8en/	.	.	.	8E-\	.	.	.	.	.	.	.	.	.	.	.	.	.	.
.	.	8g/J	.	.	.	8G\J	.	.	.	.	.	.	.	.	.	.	.	.	.	.
=49	=49	=49	=49	=49	=49	=49	=49	=49	=49	=49	=49-	=49	=49-	=49	=49	=49-	=49-	=49-	=49-	=49
1ryy	.	4f#X/	.	8r	.	4F#X\	-rum	.	4r	.	.	.	1r	.	.	1r	1r	.	1r	.
.	.	.	.	8a\L	.	.	.	.	.	.	.	.	.	.	.	.	.	.	.	.
.	.	4r	.	8dd\	.	4r	.	.	8d\	et	.	.	.	.	.	.	.	.	.	.
.	.	.	.	8dd\J	.	.	.	.	8d\	ex-	.	.	.	.	.	.	.	.	.	.
.	.	2r	.	8dd\L	.	2r	.	.	8d\L	-pec-	.	.	.	.	.	.	.	.	.	.
.	.	.	.	8cc\	.	.	.	.	8c\J	.	.	.	.	.	.	.	.	.	.	.
.	.	.	.	8b-\	.	.	.	.	8A\L	-to	.	.	.	.	.	.	.	.	.	.
.	.	.	.	8cc\J	.	.	.	.	8c\J	.	.	.	.	.	.	.	.	.	.	.
=50	=50	=50	=50	=50	=50	=50	=50	=50	=50	=50	=50-	=50	=50-	=50	=50	=50-	=50-	=50-	=50-	=50
1ryy	.	8d/	.	8cc\L	.	4G\	et	.	8c\L	Re-	.	.	1r	.	.	1r	1r	.	1r	.
.	.	4d/	.	8b-\	.	.	.	.	8B-\J	.	.	.	.	.	.	.	.	.	.	.
.	.	.	.	8b-\	.	4G\	ex-	.	4B-\	-sur-	.	.	.	.	.	.	.	.	.	.
.	.	4d/	.	8b-\J	.	.	.	.	.	.	.	.	.	.	.	.	.	.	.	.
*	*	*	*	*2\right	*	*	*	*	*	*	*	*	*	*	*	*	*	*	*	*
.	.	.	.	2cc\	.	4A\	-pec-	.	4c\	-rec-	.	.	.	.	.	.	.	.	.	.
.	.	4d/	.	.	.	.	.	.	.	.	.	.	.	.	.	.	.	.	.	.
.	.	.	.	.	.	4A\	-to	.	4c\	-ti-	.	.	.	.	.	.	.	.	.	.
.	.	8d/	.	.	.	.	.	.	.	.	.	.	.	.	.	.	.	.	.	.
=51	=51	=51	=51	=51	=51	=51	=51	=51	=51	=51	=51-	=51	=51-	=51	=51	=51-	=51-	=51-	=51-	=51
1ryy	.	8d/	.	8cc\L	.	8A\L	re-	.	8c\L	-o-	00r	.	1r	.	.	1r	1r	00r	1r	.
.	.	4d/	.	8b-\	.	8G\J	.	.	8B-\J	.	.	.	.	.	.	.	.	.	.	.
.	.	.	.	8b-\	.	4G\	-sur-	.	4B-\	-nem	.	.	.	.	.	.	.	.	.	.
.	.	4d/	.	8b-\J	.	.	.	.	.	.	.	.	.	.	.	.	.	.	.	.
.	.	.	.	2cc\	.	4A\	-re-	.	4c\	mor-	.	.	.	.	.	.	.	.	.	.
.	.	4d/	.	.	.	.	.	.	.	.	.	.	.	.	.	.	.	.	.	.
.	.	.	.	.	.	4G\	-cti-	.	4c\	-tu-	.	.	.	.	.	.	.	.	.	.
.	.	8d/	.	.	.	.	.	.	.	.	.	.	.	.	.	.	.	.	.	.
!	!	!LO:LB:g=original	!	!	!	!	!	!	!	!	!	!	!	!	!	!	!	!	!	!
=52	=52	=52	=52	=52	=52	=52	=52	=52	=52	=52	=52-	=52	=52-	=52	=52	=52-	=52-	=52-	=52-	=52
1ryy	.	2d/	.	8b-\L	.	1G	-o-	.	2B-\	-o-	.	.	1r	.	.	1r	1r	.	1r	.
.	.	.	.	8gg\	.	.	.	.	.	.	.	.	.	.	.	.	.	.	.	.
.	.	.	.	8gg\	.	.	.	.	.	.	.	.	.	.	.	.	.	.	.	.
.	.	.	.	8gg\J	.	.	.	.	.	.	.	.	.	.	.	.	.	.	.	.
.	.	2g/	.	8gg\L	.	.	.	.	2c#X\	.	.	.	.	.	.	.	.	.	.	.
.	.	.	.	8cc#X\	.	.	.	.	.	.	.	.	.	.	.	.	.	.	.	.
.	.	.	.	8cc#\	.	.	.	.	.	.	.	.	.	.	.	.	.	.	.	.
.	.	.	.	8cc#\J	.	.	.	.	.	.	.	.	.	.	.	.	.	.	.	.
!	!	!	!	!LO:LB:g=original	!	!	!	!	!	!	!	!	!	!	!	!	!	!	!	!
=53	=53	=53	=53	=53	=53	=53	=53	=53	=53	=53	=53-	=53	=53-	=53	=53	=53-	=53-	=53-	=53-	=53
1ryy	.	(<8f#X/L	.	1dd	.	4F#X\	-nem	.	4d\	-rum	.	.	1r	.	.	1r	1r	.	1r	.
.	.	8a/)	.	.	.	.	.	.	.	.	.	.	.	.	.	.	.	.	.	.
!	!	!LO:TX:b:t=|:problem	!	!	!	!	!	!	!	!	!	!	!	!	!	!	!	!	!	!
.	.	8a/	.	.	.	4r	.	.	4r	.	.	.	.	.	.	.	.	.	.	.
!	!	!LO:TX:b:t=|:problem	!	!	!	!	!	!	!	!	!	!	!	!	!	!	!	!	!	!
.	.	8a/J	.	.	.	.	.	.	.	.	.	.	.	.	.	.	.	.	.	.
.	.	(<8a/L	.	.	.	2r	.	.	2r	.	.	.	.	.	.	.	.	.	.	.
.	.	8cc/)	.	.	.	.	.	.	.	.	.	.	.	.	.	.	.	.	.	.
!	!	!LO:TX:b:t=|:problem	!	!	!	!	!	!	!	!	!	!	!	!	!	!	!	!	!	!
.	.	8cc/	.	.	.	.	.	.	.	.	.	.	.	.	.	.	.	.	.	.
!	!	!LO:TX:b:t=|:problem	!	!	!	!	!	!	!	!	!	!	!	!	!	!	!	!	!	!
.	.	8cc/J	.	.	.	.	.	.	.	.	.	.	.	.	.	.	.	.	.	.
!	!	!	!	!	!	!LO:LB:g=original	!	!	!	!	!	!	!	!	!	!	!	!	!	!
=54	=54	=54	=54	=54	=54	=54	=54	=54	=54	=54	=54-	=54	=54-	=54	=54	=54-	=54-	=54-	=54-	=54
1ryy	.	2b-/	.	8dd\L	.	4G\	mor-	.	4B-\	mor-	.	.	1r	.	.	1r	1r	.	1r	.
.	.	.	.	8b-\	.	.	.	.	.	.	.	.	.	.	.	.	.	.	.	.
.	.	.	.	8a\	.	4G\	-tu-	.	4G/	-tu-	.	.	.	.	.	.	.	.	.	.
.	.	.	.	8g\J	.	.	.	.	.	.	.	.	.	.	.	.	.	.	.	.
.	.	2g/	.	8f#X/L	.	2G\	-o-	.	2c#X\	-o-	.	.	.	.	.	.	.	.	.	.
.	.	.	.	8g/J	.	.	.	.	.	.	.	.	.	.	.	.	.	.	.	.
.	.	.	.	8c#X/L	.	.	.	.	.	.	.	.	.	.	.	.	.	.	.	.
.	.	.	.	8d/J	.	.	.	.	.	.	.	.	.	.	.	.	.	.	.	.
!	!	!	!	!	!	!	!	!	!LO:LB:g=original	!	!	!	!	!	!	!	!	!	!	!
=55	=55	=55	=55	=55	=55	=55	=55	=55	=55	=55	=55-	=55	=55-	=55	=55	=55-	=55-	=55-	=55-	=55
1ryy	.	4f#X/	.	4d/	.	4F#X\	-rum	.	4d\	-rum	1r	.	1r	.	.	1r	1r	1r	1r	.
.	.	4f#/	.	4d/	.	4r	.	.	4r	.	.	.	.	.	.	.	.	.	.	.
.	.	4f#/	.	4d/	.	2r	.	.	2r	.	.	.	.	.	.	.	.	.	.	.
.	.	4r	.	4r	.	.	.	.	.	.	.	.	.	.	.	.	.	.	.	.
=56	=56	=56	=56	=56	=56	=56	=56	=56	=56	=56	=56	=56	=56	=56	=56	=56	=56	=56	=56	=56
!	!	!	!	!	!LO:DY:a:rj:t=for	!	!	!	!	!	!	!	!	!	!	!	!LO:TX:a:i:t=Tutti	!	!LO:TX:a:i:t=Tutti	!
1ryy	.	4d/ 4b-/	.	4d/ 4b-/ 4bb-/	f	4B-\	et	.	4d\	Et	4f\	Et	4b-\	et	.	4d/	4b-\	4b-\	4b-\	.
!	!	!	!LO:DY:a:t=for	!	!	!	!	!	!	!	!	!	!	!	!	!	!	!	!	!
.	.	2d/ 2b-/	f	16b-\LL	.	4BB-/	vi-	.	4d\	vi-	4f\	vi-	4b-\	vi-	.	2d/	2b-\	2b-\	2b-\	.
.	.	.	.	16a\	.	.	.	.	.	.	.	.	.	.	.	.	.	.	.	.
.	.	.	.	16b-\	.	.	.	.	.	.	.	.	.	.	.	.	.	.	.	.
.	.	.	.	16cc\JJ	.	.	.	.	.	.	.	.	.	.	.	.	.	.	.	.
.	.	.	.	4b-\	.	4D\	-ta(m)	.	4B-\	-ta(m)	4f\	-ta(m)	4b-\	-tam	.	.	.	.	.	.
.	.	4f/ 4a/	.	4cc\	.	4F\	ven-	.	4A\	.	4f\	ven-	4cc\	ven-	.	4f/	4cc\	4a\	4cc\	.
!	!	!	!	!	!	!	!	!	!	!	!	!	!	!	!	!	!	!LO:LB:g=original	!LO:LB:g=original	!
=57	=57	=57	=57	=57	=57	=57	=57	=57	=57	=57	=57	=57	=57	=57	=57	=57	=57	=57	=57	=57
1ryy	.	4b-\	.	4dd\	.	4B-\	-tu-	.	4B-\	ven-	2f\	-tu-	4dd\	-tu-	.	4b-\	4dd\	4b-\	4dd\	.
.	.	.	.	16qqff/	.	.	.	.	.	.	.	.	.	.	.	.	.	.	.	.
.	.	8cc\L	.	8ee-\L	.	4F\	.	.	4c\	-tu-	.	.	4ee-\	.	.	4cc\	4ee-\	4cc\	4ee-\	.
.	.	16b-\L	.	16dd\L	.	.	.	.	.	.	.	.	.	.	.	.	.	.	.	.
.	.	16cc\JJ	.	16ee-\JJ	.	.	.	.	.	.	.	.	.	.	.	.	.	.	.	.
.	.	4dd\	.	4ff\	.	4BB-/	-ri	.	4d\	-ri	4f\	-ri	4ff\	-ri	.	4dd\	4ff\	4dd\	4ff\	.
.	.	4r	.	4r	.	4r	.	.	4r	.	4r	.	4r	.	.	4r	4r	4r	4r	.
=58	=58	=58	=58	=58	=58	=58	=58	=58	=58	=58	=58	=58	=58	=58	=58	=58	=58	=58	=58	=58
!	!	!	!LO:DY:a:t=p.	!	!	!	!	!	!	!	!	!	!	!	!	!	!	!	!	!
1ryy	.	2f/	p	8r	.	0r	.	.	0r	.	0r	.	0r	.	.	0r	0r	0r	0r	.
.	.	.	.	16een\LL	.	.	.	.	.	.	.	.	.	.	.	.	.	.	.	.
.	.	.	.	16ff\JJ	.	.	.	.	.	.	.	.	.	.	.	.	.	.	.	.
.	.	.	.	(>16gg\LL	.	.	.	.	.	.	.	.	.	.	.	.	.	.	.	.
.	.	.	.	16ff\JJ)	.	.	.	.	.	.	.	.	.	.	.	.	.	.	.	.
.	.	.	.	16ee-X\LL	.	.	.	.	.	.	.	.	.	.	.	.	.	.	.	.
.	.	.	.	16dd\JJ	.	.	.	.	.	.	.	.	.	.	.	.	.	.	.	.
.	.	2a/	.	8dd\L	.	.	.	.	.	.	.	.	.	.	.	.	.	.	.	.
.	.	.	.	8cc\	.	.	.	.	.	.	.	.	.	.	.	.	.	.	.	.
.	.	.	.	8cc\	.	.	.	.	.	.	.	.	.	.	.	.	.	.	.	.
.	.	.	.	8cc\J	.	.	.	.	.	.	.	.	.	.	.	.	.	.	.	.
!	!	!	!	!LO:PB:g=original	!	!	!	!	!	!	!	!	!	!	!	!	!	!	!	!
=59	=59	=59	=59	=59	=59	=59-	=59	=59	=59-	=59	=59-	=59	=59-	=59	=59	=59-	=59-	=59-	=59-	=59
1ryy	.	2a/	.	16a\LL	.	.	.	.	.	.	.	.	.	.	.	.	.	.	.	.
.	.	.	.	16cc\	.	.	.	.	.	.	.	.	.	.	.	.	.	.	.	.
.	.	.	.	16ff\	.	.	.	.	.	.	.	.	.	.	.	.	.	.	.	.
.	.	.	.	16aa\JJ	.	.	.	.	.	.	.	.	.	.	.	.	.	.	.	.
.	.	.	.	16ccc\LL	.	.	.	.	.	.	.	.	.	.	.	.	.	.	.	.
.	.	.	.	16aa\	.	.	.	.	.	.	.	.	.	.	.	.	.	.	.	.
.	.	.	.	16ff\	.	.	.	.	.	.	.	.	.	.	.	.	.	.	.	.
.	.	.	.	16ee-\JJ	.	.	.	.	.	.	.	.	.	.	.	.	.	.	.	.
.	.	16cc\LL	.	16ee-\LL	.	.	.	.	.	.	.	.	.	.	.	.	.	.	.	.
.	.	16b-\	.	16dd\	.	.	.	.	.	.	.	.	.	.	.	.	.	.	.	.
.	.	16ee-\	.	16gg\	.	.	.	.	.	.	.	.	.	.	.	.	.	.	.	.
.	.	16dd\JJ	.	16ff\JJ	.	.	.	.	.	.	.	.	.	.	.	.	.	.	.	.
.	.	4dd\	.	4ff\	.	.	.	.	.	.	.	.	.	.	.	.	.	.	.	.
!	!	!LO:PB:g=original	!	!	!	!	!	!	!	!	!	!	!LO:LB:g=original	!	!	!	!	!	!	!
=60	=60	=60	=60	=60	=60	=60	=60	=60	=60	=60	=60	=60	=60	=60	=60	=60	=60	=60	=60	=60
*	*	*tremolo	*	*	*	*	*	*	*	*	*	*	*	*	*	*	*	*	*	*
!	!	!	!LO:DY:a:t=for.	!	!LO:DY:a:rj:t=for	!	!	!	!	!	!	!	!	!	!	!	!	!	!	!
1ryy	.	16f\LL	f	16ff\LL	f	2A\	Et	.	2c\	Et	2f\	Et	2ee-\	Et	.	4f/	4cc\	1ee-	1ffT>	.
.	.	16cc\	.	16ee-\	.	.	.	.	.	.	.	.	.	.	.	.	.	.	.	.
.	.	16f\	.	16dd\	.	.	.	.	.	.	.	.	.	.	.	.	.	.	.	.
.	.	16cc\	.	16ee-\JJ	.	.	.	.	.	.	.	.	.	.	.	.	.	.	.	.
.	.	16f\	.	16ff\LL	.	.	.	.	.	.	.	.	.	.	.	8f/L	8cc\L	.	.	.
.	.	16cc\	.	16ee-\	.	.	.	.	.	.	.	.	.	.	.	.	.	.	.	.
.	.	16f\	.	16dd\	.	.	.	.	.	.	.	.	.	.	.	8f/J	8cc\J	.	.	.
.	.	16cc\JJ	.	16ee-\JJ	.	.	.	.	.	.	.	.	.	.	.	.	.	.	.	.
*	*	*rep	*	*	*	*	*	*	*	*	*	*	*	*	*	*	*	*	*	*
.	.	16f\LL	.	16f/LL	.	2A\	vi-	.	2c\	vi-	2f\	vi-	2ee-\	vi-	.	4f/	4cc\	.	.	.
.	.	16cc\	.	16ee-/	.	.	.	.	.	.	.	.	.	.	.	.	.	.	.	.
.	.	16f\	.	16f/	.	.	.	.	.	.	.	.	.	.	.	.	.	.	.	.
.	.	16cc\	.	16ee-/JJ	.	.	.	.	.	.	.	.	.	.	.	.	.	.	.	.
*	*	*	*	*rep	*	*	*	*	*	*	*	*	*	*	*	*	*	*	*	*
.	.	16f\	.	16f/LL	.	.	.	.	.	.	.	.	.	.	.	4r	4r	.	.	.
.	.	16cc\	.	16ee-/	.	.	.	.	.	.	.	.	.	.	.	.	.	.	.	.
.	.	16f\	.	16f/	.	.	.	.	.	.	.	.	.	.	.	.	.	.	.	.
.	.	16cc\JJ	.	16ee-/JJ	.	.	.	.	.	.	.	.	.	.	.	.	.	.	.	.
*	*	*	*	*Xrep	*	*	*	*	*	*	*	*	*	*	*	*	*	*	*	*
*	*	*Xrep	*	*	*	*	*	*	*	*	*	*	*	*	*	*	*	*	*	*
!	!	!	!	!	!	!	!	!	!	!	!LO:LB:g=original	!	!	!	!	!LO:LB:g=original	!	!	!	!
=61	=61	=61	=61	=61	=61	=61	=61	=61	=61	=61	=61	=61	=61	=61	=61	=61	=61	=61	=61	=61
1ryy	.	16f\LL	.	16ee-\LL	.	4B-\	-tam	.	4d\	-tam	4f\	-tam	4dd\	-ta(m)	.	4b-\	4dd\	1dd	1ff	.
.	.	16dd\	.	16dd\	.	.	.	.	.	.	.	.	.	.	.	.	.	.	.	.
.	.	16f\	.	16cc\	.	.	.	.	.	.	.	.	.	.	.	.	.	.	.	.
.	.	16dd\	.	16dd\JJ	.	.	.	.	.	.	.	.	.	.	.	.	.	.	.	.
.	.	16f\	.	16ee-\LL	.	4B-\	ven-	.	4d\	ven-	4f\	ven-	4dd\	ven-	.	8b-\L	8dd\L	.	.	.
.	.	16dd\	.	16dd\	.	.	.	.	.	.	.	.	.	.	.	.	.	.	.	.
.	.	16f\	.	16cc\	.	.	.	.	.	.	.	.	.	.	.	8b-\J	8dd\J	.	.	.
.	.	16dd\JJ	.	16dd\JJ	.	.	.	.	.	.	.	.	.	.	.	.	.	.	.	.
*	*	*rep	*	*	*	*	*	*	*	*	*	*	*	*	*	*	*	*	*	*
.	.	16f\LL	.	16f/LL	.	4B-\	-tu-	.	4d\	-tu-	4f\	-tu-	4dd\	-tu-	.	4b-\	4dd\	.	.	.
.	.	16dd\	.	16dd/	.	.	.	.	.	.	.	.	.	.	.	.	.	.	.	.
.	.	16f\	.	16f/	.	.	.	.	.	.	.	.	.	.	.	.	.	.	.	.
.	.	16dd\	.	16dd/JJ	.	.	.	.	.	.	.	.	.	.	.	.	.	.	.	.
*	*	*	*	*rep	*	*	*	*	*	*	*	*	*	*	*	*	*	*	*	*
.	.	16f\	.	16f/LL	.	4B-\	-ri	.	4B-\	-ri	4f\	-ri	4dd\	-ri	.	4r	4r	.	.	.
.	.	16dd\	.	16dd/	.	.	.	.	.	.	.	.	.	.	.	.	.	.	.	.
.	.	16f\	.	16f/	.	.	.	.	.	.	.	.	.	.	.	.	.	.	.	.
.	.	16dd\JJ	.	16dd/JJ	.	.	.	.	.	.	.	.	.	.	.	.	.	.	.	.
*	*	*Xrep	*	*Xrep	*	*	*	*	*	*	*	*	*	*	*	*	*	*	*	*
=62	=62	=62	=62	=62	=62	=62	=62	=62	=62	=62	=62	=62	=62	=62	=62	=62	=62	=62	=62	=62
1ryy	.	16f\LL	.	16ff\LL	.	2A\	Se-	.	2c\	Se-	2f\	se-	2ee-\	Se-	.	4f/	4cc\	1ee-	1ffT>	.
.	.	16cc\	.	16ee-\	.	.	.	.	.	.	.	.	.	.	.	.	.	.	.	.
.	.	16f\	.	16dd\	.	.	.	.	.	.	.	.	.	.	.	.	.	.	.	.
.	.	16cc\	.	16ee-\JJ	.	.	.	.	.	.	.	.	.	.	.	.	.	.	.	.
!	!	!	!	!LO:LB:g=original	!	!	!	!	!	!	!	!	!	!	!	!	!	!	!	!
.	.	16f\	.	16ff\LL	.	.	.	.	.	.	.	.	.	.	.	8f/L	8cc\L	.	.	.
.	.	16cc\	.	16ee-\	.	.	.	.	.	.	.	.	.	.	.	.	.	.	.	.
.	.	16f\	.	16dd\	.	.	.	.	.	.	.	.	.	.	.	8f/J	8cc\J	.	.	.
.	.	16cc\JJ	.	16ee-\JJ	.	.	.	.	.	.	.	.	.	.	.	.	.	.	.	.
*	*	*rep	*	*	*	*	*	*	*	*	*	*	*	*	*	*	*	*	*	*
.	.	16f\LL	.	16f/LL	.	4A\	-cu-	.	4c\	-cu-	4f\	-cu-	4ee-\	-cu-	.	4f/	4cc\	.	.	.
.	.	16cc\	.	16ee-/	.	.	.	.	.	.	.	.	.	.	.	.	.	.	.	.
.	.	16f\	.	16f/	.	.	.	.	.	.	.	.	.	.	.	.	.	.	.	.
.	.	16cc\	.	16ee-/JJ	.	.	.	.	.	.	.	.	.	.	.	.	.	.	.	.
.	.	16f\	.	16f/LL	.	4A\	-li	.	4c\	-li	4f\	-li	4ee-\	-li	.	4r	4r	.	.	.
.	.	16cc\	.	16ee-/	.	.	.	.	.	.	.	.	.	.	.	.	.	.	.	.
.	.	16f\	.	16f/	.	.	.	.	.	.	.	.	.	.	.	.	.	.	.	.
.	.	16cc\JJ	.	16ee-/JJ	.	.	.	.	.	.	.	.	.	.	.	.	.	.	.	.
*	*	*Xrep	*	*	*	*	*	*	*	*	*	*	*	*	*	*	*	*	*	*
!	!	!	!	!	!	!LO:PB:g=original	!	!	!	!	!	!	!	!	!	!	!LO:LB:g=original	!	!	!
=63	=63	=63	=63	=63	=63	=63	=63	=63	=63	=63	=63	=63	=63	=63	=63	=63	=63	=63	=63	=63
1ryy	.	16f\LL	.	16dd\LL	.	2B-\	a-	.	2B-\	a-	2f\	a-	2dd\	a-	.	4b-\	4dd\	1dd	1ff	.
.	.	16dd\	.	16b-\	.	.	.	.	.	.	.	.	.	.	.	.	.	.	.	.
.	.	16f\	.	16cc\	.	.	.	.	.	.	.	.	.	.	.	.	.	.	.	.
.	.	16dd\	.	16dd\JJ	.	.	.	.	.	.	.	.	.	.	.	.	.	.	.	.
.	.	16f\	.	16ee-\LL	.	.	.	.	.	.	.	.	.	.	.	8b-\L	8dd\L	.	.	.
.	.	16dd\	.	16ff\	.	.	.	.	.	.	.	.	.	.	.	.	.	.	.	.
.	.	16f\	.	16gg\	.	.	.	.	.	.	.	.	.	.	.	8b-\J	8dd\J	.	.	.
.	.	16dd\JJ	.	16aa\JJ	.	.	.	.	.	.	.	.	.	.	.	.	.	.	.	.
*	*	*rep	*	*	*	*	*	*	*	*	*	*	*	*	*	*	*	*	*	*
.	.	16f\LL	.	8bb-\L	.	2e-\	-men	.	2B-\	-men	2f\	-men	2b-\	-men	.	4b-\	4dd\	.	.	.
.	.	16dd\	.	.	.	.	.	.	.	.	.	.	.	.	.	.	.	.	.	.
.	.	16f\	.	8gg\	.	.	.	.	.	.	.	.	.	.	.	.	.	.	.	.
.	.	16dd\	.	.	.	.	.	.	.	.	.	.	.	.	.	.	.	.	.	.
.	.	16f\	.	8ddd\	.	.	.	.	.	.	.	.	.	.	.	4r	4r	.	.	.
.	.	16dd\	.	.	.	.	.	.	.	.	.	.	.	.	.	.	.	.	.	.
.	.	16f\	.	8ff\J	.	.	.	.	.	.	.	.	.	.	.	.	.	.	.	.
.	.	16dd\JJ	.	.	.	.	.	.	.	.	.	.	.	.	.	.	.	.	.	.
*	*	*Xrep	*	*	*	*	*	*	*	*	*	*	*	*	*	*	*	*	*	*
=64	=64	=64	=64	=64	=64	=64	=64	=64	=64	=64	=64	=64	=64	=64	=64	=64	=64	=64	=64	=64
1ryy	.	16f\LL	.	8eee-\	.	2F\	et	.	2c\	et	2f\	Et	2a\	et	.	4f/	4cc\	2ee-\	1ff	.
.	.	16cc\	.	.	.	.	.	.	.	.	.	.	.	.	.	.	.	.	.	.
.	.	16f\	.	4eee-\	.	.	.	.	.	.	.	.	.	.	.	.	.	.	.	.
.	.	16cc\	.	.	.	.	.	.	.	.	.	.	.	.	.	.	.	.	.	.
.	.	16f\	.	.	.	.	.	.	.	.	.	.	.	.	.	8f/L	8cc\L	.	.	.
.	.	16cc\	.	.	.	.	.	.	.	.	.	.	.	.	.	.	.	.	.	.
.	.	16f\	.	8eee-\	.	.	.	.	.	.	.	.	.	.	.	8f/J	8cc\J	.	.	.
.	.	16cc\JJ	.	.	.	.	.	.	.	.	.	.	.	.	.	.	.	.	.	.
*	*	*rep	*	*	*	*	*	*	*	*	*	*	*	*	*	*	*	*	*	*
.	.	16f\LL	.	8aa\	.	2E-\	vi-	.	2c\	vi-	2f\	vi-	2a\	vi-	.	4f/	4cc\	2cc\	.	.
.	.	16cc\	.	.	.	.	.	.	.	.	.	.	.	.	.	.	.	.	.	.
.	.	16f\	.	4aa\	.	.	.	.	.	.	.	.	.	.	.	.	.	.	.	.
.	.	16cc\	.	.	.	.	.	.	.	.	.	.	.	.	.	.	.	.	.	.
.	.	16f\	.	.	.	.	.	.	.	.	.	.	.	.	.	4f/	4cc\	.	.	.
.	.	16cc\	.	.	.	.	.	.	.	.	.	.	.	.	.	.	.	.	.	.
.	.	16f\	.	8aa\	.	.	.	.	.	.	.	.	.	.	.	.	.	.	.	.
.	.	16cc\JJ	.	.	.	.	.	.	.	.	.	.	.	.	.	.	.	.	.	.
*	*	*Xrep	*	*	*	*	*	*	*	*	*	*	*	*	*	*	*	*	*	*
!	!	!	!	!	!	!	!	!	!LO:LB:g=original	!	!	!	!	!	!	!	!	!	!	!
=65	=65	=65	=65	=65	=65	=65	=65	=65	=65	=65	=65	=65	=65	=65	=65	=65	=65	=65	=65	=65
1ryy	.	16f\LL	.	16bb-\LL	.	2D\	-tam	.	2B-\	-tam	2f\	-tam	2b-\	-tam	.	1b-	1cc	1dd	1ffT>	.
.	.	16dd\	.	16b-\	.	.	.	.	.	.	.	.	.	.	.	.	.	.	.	.
.	.	16f\	.	16cc\	.	.	.	.	.	.	.	.	.	.	.	.	.	.	.	.
.	.	16dd\	.	16dd\JJ	.	.	.	.	.	.	.	.	.	.	.	.	.	.	.	.
.	.	16f\	.	16ee-\LL	.	.	.	.	.	.	.	.	.	.	.	.	.	.	.	.
.	.	16dd\	.	16ff\	.	.	.	.	.	.	.	.	.	.	.	.	.	.	.	.
.	.	16f\	.	16gg\	.	.	.	.	.	.	.	.	.	.	.	.	.	.	.	.
.	.	16dd\JJ	.	16aa\JJ	.	.	.	.	.	.	.	.	.	.	.	.	.	.	.	.
*	*	*rep	*	*	*	*	*	*	*	*	*	*	*	*	*	*	*	*	*	*
.	.	16f\LL	.	8bb-\L	.	2D\	ven-	.	2B-\	ven-	2f\	ven-	2b-\	ven-	.	.	.	.	.	.
.	.	16dd\	.	.	.	.	.	.	.	.	.	.	.	.	.	.	.	.	.	.
.	.	16f\	.	8ff\	.	.	.	.	.	.	.	.	.	.	.	.	.	.	.	.
.	.	16dd\	.	.	.	.	.	.	.	.	.	.	.	.	.	.	.	.	.	.
.	.	16f\	.	8ddd\	.	.	.	.	.	.	.	.	.	.	.	.	.	.	.	.
.	.	16dd\	.	.	.	.	.	.	.	.	.	.	.	.	.	.	.	.	.	.
.	.	16f\	.	8ff\J	.	.	.	.	.	.	.	.	.	.	.	.	.	.	.	.
.	.	16dd\JJ	.	.	.	.	.	.	.	.	.	.	.	.	.	.	.	.	.	.
*	*	*Xrep	*	*	*	*	*	*	*	*	*	*	*	*	*	*	*	*	*	*
!	!	!LO:LB:g=original	!	!LO:LB:g=original	!	!	!	!	!	!	!	!	!	!	!	!	!	!	!	!
=66	=66	=66	=66	=66	=66	=66	=66	=66	=66	=66	=66	=66	=66	=66	=66	=66	=66	=66	=66	=66
16F\LL	7 5:	16f\LL	.	8eee-\	.	2F\	-tu-	.	2c\	-tu-	2f\	-tu-	2a\	-tu-	.	4f/	4cc\	2ee-\	1ffT>	.
16E-\	.	16cc\	.	.	.	.	.	.	.	.	.	.	.	.	.	.	.	.	.	.
16F\	.	16f\	.	4eee-\	.	.	.	.	.	.	.	.	.	.	.	.	.	.	.	.
16G\JJ	.	16cc\	.	.	.	.	.	.	.	.	.	.	.	.	.	.	.	.	.	.
16A\LL	.	16f\	.	.	.	.	.	.	.	.	.	.	.	.	.	8f/L	8cc\L	.	.	.
16G\	.	16cc\	.	.	.	.	.	.	.	.	.	.	.	.	.	.	.	.	.	.
16A\	.	16f\	.	8eee-\	.	.	.	.	.	.	.	.	.	.	.	8f/J	8cc\J	.	.	.
16B-\JJ	.	16cc\JJ	.	.	.	.	.	.	.	.	.	.	.	.	.	.	.	.	.	.
*	*	*rep	*	*	*	*	*	*	*	*	*	*	*	*	*	*	*	*	*	*
8c\L	.	16f\LL	.	8aa\	.	4c\	-ri	.	2c\	-ri	2f\	-ri	2a\	-ri	.	4f/	4cc\	2cc\	.	.
.	.	16cc\	.	.	.	.	.	.	.	.	.	.	.	.	.	.	.	.	.	.
8F\	.	16f\	.	4aa\	.	.	.	.	.	.	.	.	.	.	.	.	.	.	.	.
.	.	16cc\	.	.	.	.	.	.	.	.	.	.	.	.	.	.	.	.	.	.
8e-\	x 4	16f\	.	.	.	4e-\	Se-	.	.	.	.	.	.	.	.	4f/	4cc\	.	.	.
.	.	16cc\	.	.	.	.	.	.	.	.	.	.	.	.	.	.	.	.	.	.
8F\J	.	16f\	.	8aa\	.	.	.	.	.	.	.	.	.	.	.	.	.	.	.	.
.	.	16cc\JJ	.	.	.	.	.	.	.	.	.	.	.	.	.	.	.	.	.	.
*	*	*Xrep	*	*	*	*	*	*	*	*	*	*	*	*	*	*	*	*	*	*
=67	=67	=67	=67	=67	=67	=67	=67	=67	=67	=67	=67	=67	=67	=67	=67	=67	=67	=67	=67	=67
*	*	*	*	*tremolo	*	*	*	*	*	*	*	*	*	*	*	*	*	*	*	*
4d\	.	16b-\LL	.	16bb-\LL	.	4d\	-cu-	.	4B-\	Se-	4f\	se-	2b-\	se-	.	4B-/	4b-\	4dd\	4bb-\	.
.	.	16b-\	.	16bb-\	.	.	.	.	.	.	.	.	.	.	.	.	.	.	.	.
.	.	16b-\	.	16bb-\	.	.	.	.	.	.	.	.	.	.	.	.	.	.	.	.
.	.	16b-\	.	16bb-\JJ	.	.	.	.	.	.	.	.	.	.	.	.	.	.	.	.
4F\	x -3	16b-\	.	16aa-X\LL	.	4F\	-li	.	4d\	.	4a-X\	.	.	.	.	8B-/L	8b-\L	2.b-\	4aa-X\	.
.	.	16b-\	.	16aa-\	.	.	.	.	.	.	.	.	.	.	.	.	.	.	.	.
.	.	16b-\	.	16aa-\	.	.	.	.	.	.	.	.	.	.	.	8B-/J	8b-\J	.	.	.
.	.	16b-\JJ	.	16aa-\JJ	.	.	.	.	.	.	.	.	.	.	.	.	.	.	.	.
4E-\	x 3	16b-\LL	.	16gg\LL	.	4E-\	.	.	4e-\	.	4g\	.	4b-\	-cu-	.	4B-/	4b-\	.	4gg\	.
.	.	16b-\	.	16gg\	.	.	.	.	.	.	.	.	.	.	.	.	.	.	.	.
.	.	16b-\	.	16gg\	.	.	.	.	.	.	.	.	.	.	.	.	.	.	.	.
.	.	16b-\	.	16gg\JJ	.	.	.	.	.	.	.	.	.	.	.	.	.	.	.	.
4D\	x 3	16b-\	.	16ff#X\LL	.	4D\	.	.	8f\	-cu-	8f\	-cu-	4b-\	-li	.	4B-/	4b-\	.	4ff#X\	.
.	.	16b-\	.	16ff#\	.	.	.	.	.	.	.	.	.	.	.	.	.	.	.	.
.	.	16b-\	.	16ff#\	.	.	.	.	8f\	-li	8f\	-li	.	.	.	.	.	.	.	.
.	.	16b-\JJ	.	16ff#\JJ	.	.	.	.	.	.	.	.	.	.	.	.	.	.	.	.
!	!	!	!	!	!	!	!	!	!	!	!LO:LB:g=original	!	!	!	!	!	!	!	!	!
=68	=68	=68	=68	=68	=68	=68	=68	=68	=68	=68	=68	=68	=68	=68	=68	=68	=68	=68	=68	=68
4E-\	.	16b-\LL	.	16gg\LL	.	4E-\	a-	.	2e-\	a-	2g\	a-	4b-\	a-	.	4B-/	4b-\	4b-\	4gg\	.
.	.	16b-\	.	16gg\	.	.	.	.	.	.	.	.	.	.	.	.	.	.	.	.
.	.	16b-\	.	16gg\	.	.	.	.	.	.	.	.	.	.	.	.	.	.	.	.
.	.	16b-\	.	16gg\JJ	.	.	.	.	.	.	.	.	.	.	.	.	.	.	.	.
4G\	6 x	16b-\	.	16ee-\LL	.	4G\	.	.	.	.	.	.	4ee-\	.	.	4r	4r	4ee-\	4bb-\	.
.	.	16b-\	.	16ee-\	.	.	.	.	.	.	.	.	.	.	.	.	.	.	.	.
.	.	16b-\	.	16ee-\	.	.	.	.	.	.	.	.	.	.	.	.	.	.	.	.
.	.	16b-\JJ	.	16ee-\JJ	.	.	.	.	.	.	.	.	.	.	.	.	.	.	.	.
4F\	6 4	16b-\LL	.	16dd\LL	.	4F\	.	.	4f\	.	2b-\	-men	4dd\	.	.	2r	2r	4dd\	2bb-\	.
.	.	16b-\	.	16dd\	.	.	.	.	.	.	.	.	.	.	.	.	.	.	.	.
.	.	16b-\	.	16dd\	.	.	.	.	.	.	.	.	.	.	.	.	.	.	.	.
.	.	16b-\	.	16dd\JJ	.	.	.	.	.	.	.	.	.	.	.	.	.	.	.	.
4E-\	6 5	16b-\	.	16cc\LL	.	4E-\	.	.	4g\	.	.	.	4cc\	.	.	.	.	4cc\	.	.
.	.	16b-\	.	16cc\	.	.	.	.	.	.	.	.	.	.	.	.	.	.	.	.
.	.	16b-\	.	16cc\	.	.	.	.	.	.	.	.	.	.	.	.	.	.	.	.
.	.	16b-\JJ	.	16cc\JJ	.	.	.	.	.	.	.	.	.	.	.	.	.	.	.	.
*	*	*	*	*Xtremolo	*	*	*	*	*	*	*	*	*	*	*	*	*	*	*	*
!	!	!	!	!	!	!	!	!	!	!	!	!	!	!	!	!	!	!LO:LB:g=original	!	!
=69	=69	=69	=69	=69	=69	=69	=69	=69	=69	=69	=69	=69	=69	=69	=69	=69	=69	=69	=69	=69
*2\right	*	*	*	*	*	*	*	*	*	*	*	*	*	*	*	*	*	*	*	*
*tremolo	*	*	*	*	*	*	*	*	*	*	*	*ij	*	*	*	*	*	*	*	*
8F\L	6 4	16f\LL	.	16dd\LL	.	1F	.	.	1f	.	2.b-\	a-	2dd\	.	.	4b-\	2dd\	2dd\	2.bb-\	.
.	.	16cc\	.	16bb-\	.	.	.	.	.	.	.	.	.	.	.	.	.	.	.	.
8F\	.	16f\	.	16dd\	.	.	.	.	.	.	.	.	.	.	.	.	.	.	.	.
.	.	16cc\	.	16bb-\JJ	.	.	.	.	.	.	.	.	.	.	.	.	.	.	.	.
*	*	*	*	*rep	*	*	*	*	*	*	*	*	*	*	*	*	*	*	*	*
8F\	.	16f\	.	16dd\LL	.	.	.	.	.	.	.	.	.	.	.	8b-\L	.	.	.	.
.	.	16cc\	.	16bb-\	.	.	.	.	.	.	.	.	.	.	.	.	.	.	.	.
8F\J	.	16f\	.	16dd\	.	.	.	.	.	.	.	.	.	.	.	8b-\J	.	.	.	.
.	.	16cc\JJ	.	16bb-\JJ	.	.	.	.	.	.	.	.	.	.	.	.	.	.	.	.
*	*	*rep	*	*Xrep	*	*	*	*	*	*	*	*	*	*	*	*	*	*	*	*
8F\L	5 4	16f\LL	.	16cc\LL	.	.	.	.	.	.	.	.	2cc\	.	.	4f/	2cc\	2cc\	.	.
.	x 3	16cc\	.	16bb-\	.	.	.	.	.	.	.	.	.	.	.	.	.	.	.	.
8F\	.	16f\	.	16cc\	.	.	.	.	.	.	.	.	.	.	.	.	.	.	.	.
.	.	16cc\	.	16bb-\JJ	.	.	.	.	.	.	.	.	.	.	.	.	.	.	.	.
8F\	.	16f\	.	16cc\LL	.	.	.	.	.	.	4a\	-men	.	.	.	4f/	.	.	4aa\	.
.	.	16cc\	.	16aa\	.	.	.	.	.	.	.	.	.	.	.	.	.	.	.	.
8F\J	.	16f\	.	16cc\	.	.	.	.	.	.	.	.	.	.	.	.	.	.	.	.
.	.	16cc\JJ	.	16aa\JJ	.	.	.	.	.	.	.	.	.	.	.	.	.	.	.	.
*	*	*Xrep	*	*	*	*	*	*	*	*	*	*	*	*	*	*	*	*	*	*
!	!	!	!	!	!	!	!	!	!	!	!	!	!	!	!	!	!	!	!LO:LB:g=original	!
=70	=70	=70	=70	=70	=70	=70	=70	=70	=70	=70	=70	=70	=70	=70	=70	=70	=70	=70	=70	=70
8B-\L	.	16f\LL	.	16dd\LL	.	2B-\	-men	.	2f\	-men	2f\	a-	2dd\	-men	.	1b-	1dd	1dd	1bb-	.
.	.	16dd\	.	16bb-\	.	.	.	.	.	.	.	.	.	.	.	.	.	.	.	.
8B-\	.	16f\	.	16dd\	.	.	.	.	.	.	.	.	.	.	.	.	.	.	.	.
.	.	16dd\	.	16bb-\JJ	.	.	.	.	.	.	.	.	.	.	.	.	.	.	.	.
*	*	*	*	*rep	*	*	*	*	*	*	*	*	*	*	*	*	*	*	*	*
8B-\	.	16f\	.	16dd\LL	.	.	.	.	.	.	.	.	.	.	.	.	.	.	.	.
.	.	16dd\	.	16bb-\	.	.	.	.	.	.	.	.	.	.	.	.	.	.	.	.
8B-\J	.	16f\	.	16dd\	.	.	.	.	.	.	.	.	.	.	.	.	.	.	.	.
.	.	16dd\JJ	.	16bb-\JJ	.	.	.	.	.	.	.	.	.	.	.	.	.	.	.	.
*	*	*	*	*Xrep	*	*	*	*	*	*	*	*	*	*	*	*	*	*	*	*
*	*	*	*	*rep	*	*	*	*	*	*	*	*	*	*	*	*	*	*	*	*
!	!	!	!	!	!	!	!	!	!LO:SIC:v:s:t=1B-	!	!	!	!	!	!	!	!	!	!	!
8G\L	.	16g\LL	.	16dd\LL	.	2G\	a-	.	2B-\	a-	2g\	-men	2dd\	a-	.	.	.	.	.	.
.	.	16dd\	.	16bb-\	.	.	.	.	.	.	.	.	.	.	.	.	.	.	.	.
8G\	.	16g\	.	16dd\	.	.	.	.	.	.	.	.	.	.	.	.	.	.	.	.
.	.	16dd\	.	16bb-\JJ	.	.	.	.	.	.	.	.	.	.	.	.	.	.	.	.
*	*	*	*	*Xrep	*	*	*	*	*	*	*	*	*	*	*	*	*	*	*	*
*	*	*	*	*rep	*	*	*	*	*	*	*	*	*	*	*	*	*	*	*	*
8G\	.	16g\	.	16dd\LL	.	.	.	.	.	.	.	.	.	.	.	.	.	.	.	.
.	.	16dd\	.	16bb-\	.	.	.	.	.	.	.	.	.	.	.	.	.	.	.	.
8G\J	.	16g\	.	16dd\	.	.	.	.	.	.	.	.	.	.	.	.	.	.	.	.
.	.	16dd\JJ	.	16bb-\JJ	.	.	.	.	.	.	.	.	.	.	.	.	.	.	.	.
*	*	*	*	*Xrep	*	*	*	*	*	*	*	*	*	*	*	*	*	*	*	*
!	!	!	!	!LO:LB:g=original	!	!LO:LB:g=original	!	!	!	!	!	!	!	!	!	!	!	!	!	!
=71	=71	=71	=71	=71	=71	=71	=71	=71	=71	=71	=71	=71	=71	=71	=71	=71	=71	=71	=71	=71
8E-\L	6 5	16g\LL	.	16cc\LL	.	2E-\	.	.	2B-\	.	2g\	a-	1cc	.	.	2b-\	2cc\	1cc	2bb-\	.
.	.	16dd\	.	16bb-\	.	.	.	.	.	.	.	.	.	.	.	.	.	.	.	.
8E-\	.	16g\	.	16cc\	.	.	.	.	.	.	.	.	.	.	.	.	.	.	.	.
.	.	16dd\	.	16bb-\JJ	.	.	.	.	.	.	.	.	.	.	.	.	.	.	.	.
8E-\	.	16g\	.	16cc\LL	.	.	.	.	.	.	.	.	.	.	.	.	.	.	.	.
.	.	16dd\	.	16bb-\	.	.	.	.	.	.	.	.	.	.	.	.	.	.	.	.
8E-\J	.	16g\	.	16cc\	.	.	.	.	.	.	.	.	.	.	.	.	.	.	.	.
.	.	16dd\JJ	.	16bb-\JJ	.	.	.	.	.	.	.	.	.	.	.	.	.	.	.	.
8F\L	.	16f\LL	.	16cc\LL	.	2F\	.	.	2A\	-men	2f\	-men	.	.	.	2f/	2cc\	.	2aa\	.
*	*	*	*	*	*	*	*	*	*	*	*	*Xij	*	*	*	*	*	*	*	*
.	.	16cc\	.	16aa\	.	.	.	.	.	.	.	.	.	.	.	.	.	.	.	.
8F\	.	16f\	.	16cc\	.	.	.	.	.	.	.	.	.	.	.	.	.	.	.	.
.	.	16cc\	.	16aa\JJ	.	.	.	.	.	.	.	.	.	.	.	.	.	.	.	.
8F\	.	16f\	.	16cc\LL	.	.	.	.	.	.	.	.	.	.	.	.	.	.	.	.
.	.	16cc\	.	16aa\	.	.	.	.	.	.	.	.	.	.	.	.	.	.	.	.
8F\J	.	16f\	.	16cc\	.	.	.	.	.	.	.	.	.	.	.	.	.	.	.	.
.	.	16cc\JJ	.	16aa\JJ	.	.	.	.	.	.	.	.	.	.	.	.	.	.	.	.
*Xtremolo	*	*	*	*	*	*	*	*	*	*	*	*	*	*	*	*	*	*	*	*
=72	=72	=72	=72	=72	=72	=72	=72	=72	=72	=72	=72	=72	=72	=72	=72	=72	=72	=72	=72	=72
!	!	!	!	!	!	!	!	!	!	!	!LO:SIC:v:s:t=2f	!	!	!	!	!	!	!	!	!
4B-\	.	4f\ 4dd\	.	4dd\ 4bb-\	.	4B-\	-men	.	4B-\	a-	4f\	a-	4dd\	.	.	4b-\	4dd\	4dd\	4bb-\	.
4F\	.	4e-\ 4cc\	.	4cc\ 4aa\	.	4F\	a-	.	4A\	.	4f\	.	4cc\	.	.	4f/	4cc\	4cc\	4aa\	.
4BB-/	.	4f\ 4dd\	.	4dd\ 4bb-\	.	4BB-/	-men	.	4B-\	-men	4f\	-men	4dd\	-men	.	4b-\	4dd\	4dd\	4bb-\	.
4r	.	4r	.	4r	.	4r	.	.	4r	.	4r	.	4r	.	.	4r	4r	4r	4r	.
==	==	==	==	==	==	==	==	==	==	==	==	==	==	==	==	==	==	==	==	==
*-	*-	*-	*-	*-	*-	*-	*-	*-	*-	*-	*-	*-	*-	*-	*-	*-	*-	*-	*-	*-
!!!system-decoration: [(g1)][(g2)][(g3)][(g4)]g5
!!!RDF**kern: > = above
!!!RDF**kern: < = below
!!!ENC: Mateusz Solarz
!!!END: 2021-11-23
!!!EED: Jędrzej Mróz
!!!EEV: 2021-12-02
